; generated by PrusaSlicer 2.5.0+win64 on 2023-11-05 at 08:53:10 UTC

; 

; external perimeters extrusion width = 0.42mm
; perimeters extrusion width = 0.44mm
; infill extrusion width = 0.44mm
; solid infill extrusion width = 0.44mm
; top infill extrusion width = 0.40mm
; support material extrusion width = 0.36mm
; first layer extrusion width = 0.42mm

; external perimeters extrusion width = 0.42mm
; perimeters extrusion width = 0.44mm
; infill extrusion width = 0.44mm
; solid infill extrusion width = 0.44mm
; top infill extrusion width = 0.40mm
; support material extrusion width = 0.36mm
; first layer extrusion width = 0.42mm

M107
;TYPE:Custom
G90 ; use absolute coordinates
M83 ; extruder relative mode
M140 S60 ; set final bed temp
M104 S150 ; set temporary nozzle temp to prevent oozing during homing
G4 S10 ; allow partial nozzle warmup
G28 ; home all axis
G1 Z50 F240
G1 X2 Y10 F3000
M104 S215 ; set final nozzle temp
M190 S60 ; wait for bed temp to stabilize
M109 S215 ; wait for nozzle temp to stabilize
G1 Z0.28 F240
G92 E0
G1 Y140 E10 F1500 ; prime the nozzle
G1 X2.3 F5000
G92 E0
G1 Y10 E10 F1200 ; prime the nozzle
G92 E0
G21 ; set units to millimeters
G90 ; use absolute coordinates
M83 ; use relative distances for extrusion
; Filament gcode
M107
;LAYER_CHANGE
;Z:0.2
;HEIGHT:0.2
;BEFORE_LAYER_CHANGE
G92 E0
;0.2


G1 E-5 F3600
G1 Z.2 F9000
;AFTER_LAYER_CHANGE
;0.2
G1 X86.366 Y72.776
G1 E5 F2400
M204 S500
;TYPE:Skirt/Brim
;WIDTH:0.42
G1 F1200
G1 X87.454 Y71.56 E.05115
G1 X89.349 Y70.977 E.06217
G1 X140.873 Y70.976 E1.6155
G1 X141.269 Y70.977 E.01244
G1 X142.852 Y71.372 E.05115
G1 X144.252 Y72.776 E.06217
G1 X147.585 Y79.084 E.22368
G1 X147.975 Y80.598 E.04905
G1 X148.358 Y101.104 E.64307
G1 X148.341 Y112.668 E.36258
G1 X144.996 Y146.133 E1.0545
G1 X144.716 Y147.183 E.03406
G1 X144.19 Y148.068 E.03227
G1 X143.863 Y148.436 E.01545
G1 X142.957 Y149.085 E.03494
G1 X142.27 Y149.367 E.02327
G1 X141.191 Y149.52 E.03418
G1 X90.191 Y149.52 E1.59907
G1 X89.112 Y149.367 E.03417
G1 X88.287 Y149.01 E.02818
G1 X87.193 Y148.068 E.04528
G1 X86.671 Y147.194 E.0319
G1 X86.386 Y146.135 E.03439
G1 X83.025 Y112.405 E1.06283
G1 X82.643 Y94.533 E.56049
G1 X82.642 Y80.661 E.43493
G1 X83.033 Y79.084 E.05096
G1 X86.338 Y72.829 E.2218
G1 E-3.5 F3600
;WIPE_START
G1 F7200
G1 X87.454 Y71.56 E-.80263
G1 X88.706 Y71.175 E-.62237
;WIPE_END
G1 E-.075 F3600
G1 X89.054 Y94.461 F9000
G1 E5 F2400
;TYPE:Support material
G1 F1200
G1 X86.019 Y94.461 E.09516
G1 X86.019 Y80.661 E.43267
G1 X89.054 Y80.661 E.09516
G1 X89.054 Y94.404 E.4309
G1 X88.494 Y94.291 F9000
G1 F1200
G1 X88.494 Y81.001 E.41671
G1 X88.075 Y81.001 E.01314
G1 X88.075 Y94.121 E.41139
G1 X87.656 Y94.121 E.01314
G1 X87.656 Y81.001 E.41139
G1 X87.237 Y81.001 E.01314
G1 X87.237 Y94.121 E.41139
G1 X86.818 Y94.121 E.01314
G1 X86.818 Y81.001 E.41139
G1 X86.4 Y81.001 E.01314
G1 X86.4 Y94.291 E.41671
G1 E-3.5 F3600
;WIPE_START
G1 F7200
G1 X86.4 Y91.291 E-1.425
;WIPE_END
G1 E-.075 F3600
G1 X144.599 Y94.461 F9000
G1 E5 F2400
G1 F1200
G1 X141.564 Y94.461 E.09516
G1 X141.564 Y80.661 E.43267
G1 X144.599 Y80.661 E.09516
G1 X144.599 Y94.404 E.4309
G1 X144.218 Y94.291 F9000
G1 F1200
G1 X144.218 Y81.001 E.41671
G1 X143.799 Y81.001 E.01314
G1 X143.799 Y94.121 E.41139
G1 X143.38 Y94.121 E.01314
G1 X143.38 Y81.001 E.41139
G1 X142.961 Y81.001 E.01314
G1 X142.961 Y94.121 E.41139
G1 X142.542 Y94.121 E.01314
G1 X142.542 Y81.001 E.41139
G1 X142.123 Y81.001 E.01314
G1 X142.123 Y94.291 E.41671
G1 E-3.5 F3600
;WIPE_START
G1 F7200
G1 X142.123 Y91.291 E-1.425
;WIPE_END
G1 E-.075 F3600
G1 X140.042 Y99.544 F9000
G1 E5 F2400
;TYPE:Perimeter
;WIDTH:0.419999
G1 F1200
G1 X90.576 Y99.544 E1.55096
G1 X90.576 Y75.578 E.75142
G1 X109.042 Y75.578 E.57898
G1 X109.042 Y89.135 E.42508
G1 X109.059 Y89.314 E.00562
G1 X109.185 Y89.635 E.01084
G1 X109.396 Y89.872 E.00995
G1 X109.714 Y90.039 E.01125
G1 X109.984 Y90.078 E.00856
G1 X116.202 Y90.078 E.19496
;WIDTH:0.445454
G1 X117.117 Y90.091 E.03062
G1 X117.867 Y90.069 E.02512
;WIDTH:0.400929
G1 X123.515 Y90.069 E.16813
;WIDTH:0.405739
G1 X123.661 Y90.071 E.00441
;WIDTH:0.425766
G1 X125.18 Y90.078 E.04834
;WIDTH:0.419999
G1 X130.785 Y90.066 E.17575
G1 X131.128 Y89.938 E.01146
G1 X131.4 Y89.684 E.0117
G1 X131.529 Y89.43 E.00891
G1 X131.576 Y89.135 E.00936
G1 X131.576 Y75.578 E.42508
G1 X140.042 Y75.578 E.26543
G1 X140.042 Y79.811 E.13272
G1 X140.042 Y99.484 E.61683
G1 X140.419 Y99.921 F9000
G1 F1200
G1 X90.199 Y99.921 E1.5746
G1 X90.199 Y75.201 E.77507
G1 X109.658 Y75.201 E.61014
G1 X109.419 Y75.486 E.01169
G1 X109.419 Y89.135 E.42795
G1 X109.429 Y89.242 E.00337
G1 X109.54 Y89.485 E.00836
G1 X109.753 Y89.651 E.00848
G1 X109.984 Y89.701 E.00743
G1 X129.827 Y89.701 E.62215
G1 X130.724 Y89.694 E.02814
G1 X130.987 Y89.577 E.00899
G1 X131.137 Y89.393 E.00747
G1 X131.199 Y89.135 E.00829
G1 X131.199 Y75.486 E.42795
G1 X130.914 Y75.201 E.01265
G1 X140.419 Y75.201 E.29803
G1 X140.419 Y99.861 E.77319
G1 X140.796 Y100.298 F9000
;TYPE:External perimeter
G1 F1200
G1 X89.822 Y100.298 E1.59825
G1 X89.822 Y74.824 E.79871
G1 X109.133 Y74.824 E.6055
;WIDTH:0.468417
G1 X109.984 Y74.848 E.03012
G1 X130.633 Y74.848 E.73057
G1 X131.484 Y74.824 E.03012
;WIDTH:0.419999
G1 X140.796 Y74.824 E.29195
G1 X140.796 Y79.811 E.15636
G1 X140.796 Y100.238 E.64047
G1 E-3.5 F3600
;WIPE_START
G1 F7200
G1 X137.796 Y100.241 E-1.425
;WIPE_END
G1 E-.075 F3600
G1 X126.31 Y96.839 F9000
G1 E5 F2400
;TYPE:Perimeter
G1 F1200
G1 X125.906 Y97.409 E.02192
G1 X125.249 Y97.953 E.02673
G1 X124.475 Y98.309 E.02673
G1 X123.639 Y98.451 E.02659
G1 X117.867 Y98.459 E.18096
G1 X117.145 Y98.372 E.02281
G1 X116.346 Y98.076 E.02672
G1 X115.651 Y97.583 E.02673
G1 X115.106 Y96.926 E.02673
G1 X114.751 Y96.152 E.02671
G1 X114.608 Y95.316 E.02661
G1 X114.6 Y93.684 E.05115
G1 X114.652 Y93.14 E.01713
G1 X114.809 Y92.553 E.01906
G1 X115.207 Y91.8 E.02671
G1 X115.516 Y91.42 E.01534
G1 X116.133 Y90.924 E.02483
;WIDTH:0.430197
G1 X116.906 Y90.563 E.02746
;WIDTH:0.445454
G1 X117.143 Y90.492 E.0083
G1 X117.745 Y90.432 E.02022
;WIDTH:0.405739
G1 X117.867 Y90.427 E.0037
;WIDTH:0.400929
G1 X123.515 Y90.427 E.16813
;WIDTH:0.445454
G1 X124.239 Y90.492 E.02433
G1 X125.036 Y90.801 E.02862
;WIDTH:0.419999
G1 X125.732 Y91.294 E.02673
G1 X126.276 Y91.95 E.02673
G1 X126.631 Y92.725 E.02673
G1 X126.774 Y93.561 E.02659
G1 X126.782 Y95.192 E.05115
G1 X126.695 Y95.914 E.02281
G1 X126.399 Y96.713 E.02672
G1 X126.345 Y96.79 E.00293
G1 X125.544 Y97.23 F9000
G1 F1200
G1 X125.02 Y97.654 E.02114
G1 X124.33 Y97.96 E.02366
G1 X123.515 Y98.082 E.02584
G1 X117.867 Y98.082 E.17709
G1 X117.194 Y97.998 E.02126
G1 X116.49 Y97.727 E.02365
G1 X115.88 Y97.284 E.02366
G1 X115.406 Y96.697 E.02366
G1 X115.099 Y96.008 E.02364
G1 X114.982 Y95.266 E.02354
G1 X114.977 Y93.684 E.0496
G1 X115.016 Y93.238 E.01405
G1 X115.173 Y92.651 E.01906
G1 X115.533 Y91.988 E.02364
G1 X115.88 Y91.593 E.01649
G1 X116.362 Y91.223 E.01906
G1 X117.052 Y90.916 E.02366
G1 X117.793 Y90.799 E.02353
G1 X123.515 Y90.794 E.17941
G1 X124.188 Y90.878 E.02126
G1 X124.892 Y91.149 E.02365
G1 X125.502 Y91.593 E.02366
G1 X125.977 Y92.18 E.02366
G1 X126.283 Y92.869 E.02366
G1 X126.4 Y93.61 E.02353
G1 X126.405 Y95.192 E.0496
G1 X126.321 Y95.865 E.02126
G1 X126.05 Y96.569 E.02365
G1 X125.591 Y97.192 E.02428
G1 X125.307 Y96.95 F9000
;TYPE:External perimeter
G1 F1200
G1 X124.79 Y97.355 E.02059
G1 X124.186 Y97.612 E.02059
G1 X123.515 Y97.705 E.02124
G1 X117.867 Y97.705 E.17709
G1 X117.244 Y97.624 E.01971
G1 X116.635 Y97.379 E.02059
G1 X116.11 Y96.984 E.02059
G1 X115.705 Y96.467 E.02059
G1 X115.448 Y95.863 E.02058
G1 X115.356 Y95.217 E.02048
G1 X115.354 Y93.684 E.04806
G1 X115.38 Y93.335 E.01097
G1 X115.538 Y92.748 E.01906
G1 X115.86 Y92.177 E.02058
G1 X116.11 Y91.892 E.01187
G1 X116.592 Y91.522 E.01906
G1 X117.196 Y91.265 E.02059
G1 X117.842 Y91.173 E.02046
G1 X123.515 Y91.171 E.17786
G1 X124.138 Y91.252 E.01971
G1 X124.748 Y91.497 E.02059
G1 X125.272 Y91.892 E.02059
G1 X125.677 Y92.409 E.02059
G1 X125.935 Y93.013 E.02059
G1 X126.026 Y93.66 E.02046
G1 X126.028 Y95.192 E.04806
G1 X125.947 Y95.816 E.01971
G1 X125.702 Y96.425 E.02059
G1 X125.343 Y96.902 E.01871
G1 X125.415 Y97.335 F9000
G1 E-3.5 F3600
;WIPE_START
G1 F7200
G1 X124.79 Y97.355 E-.33956
G1 X124.186 Y97.612 E-.31195
G1 X123.515 Y97.705 E-.32175
G1 X122.564 Y97.705 E-.45174
;WIPE_END
G1 E-.075 F3600
G1 X130.633 Y89.324 F9000
G1 E5 F2400
G1 F1200
G1 X111.583 Y89.324 E.59732
G1 X109.984 Y89.324 E.05012
G1 X109.85 Y89.268 E.00456
G1 X109.796 Y89.135 E.00449
G1 X109.796 Y75.486 E.42795
;WIDTH:0.445824
G1 X109.872 Y75.381 E.00435
;WIDTH:0.471649
G1 X109.947 Y75.275 E.00463
G1 X109.984 Y75.274 E.00132
;WIDTH:0.468426
G1 X130.633 Y75.274 E.73058
G1 X130.822 Y75.486 E.01006
;WIDTH:0.419999
G1 X130.822 Y89.135 E.42795
G1 X130.751 Y89.283 E.00512
G1 X130.69 Y89.304 E.00203
G1 X130.53 Y89.71 F9000
G1 E-3.5 F3600
;WIPE_START
G1 F7200
G1 X127.69 Y89.307 E-1.425
;WIPE_END
G1 E-.075 F3600
G1 X139.153 Y75.699 F9000
G1 E5 F2400
;TYPE:Solid infill
;WIDTH:0.422594
G1 F1200
G1 X139.751 Y76.297 E.0267
G1 X139.751 Y76.834 E.01695
G1 X138.786 Y75.868 E.0431
G1 X138.249 Y75.868 E.01695
G1 X139.751 Y77.371 E.06707
G1 X139.751 Y77.908 E.01695
G1 X137.712 Y75.868 E.09104
G1 X137.175 Y75.868 E.01695
G1 X139.751 Y78.445 E.11502
G1 X139.751 Y78.982 E.01695
G1 X136.638 Y75.868 E.13899
G1 X136.101 Y75.868 E.01695
G1 X139.751 Y79.519 E.16296
G1 X139.751 Y80.055 E.01695
G1 X135.564 Y75.868 E.18694
G1 X135.027 Y75.868 E.01695
G1 X139.751 Y80.592 E.21091
G1 X139.751 Y81.129 E.01695
G1 X134.491 Y75.868 E.23488
G1 X133.954 Y75.868 E.01695
G1 X139.751 Y81.666 E.25885
G1 X139.751 Y82.203 E.01695
G1 X133.417 Y75.868 E.28283
G1 X132.88 Y75.868 E.01695
G1 X139.751 Y82.74 E.3068
G1 X139.751 Y83.277 E.01695
G1 X132.343 Y75.868 E.33077
G1 X131.866 Y75.868 E.01504
G1 X131.866 Y75.929 E.00191
G1 X139.751 Y83.814 E.35204
G1 X139.751 Y84.351 E.01695
G1 X131.866 Y76.466 E.35204
G1 X131.866 Y77.003 E.01695
G1 X139.751 Y84.888 E.35204
G1 X139.751 Y85.425 E.01695
G1 X131.866 Y77.54 E.35204
G1 X131.866 Y78.077 E.01695
G1 X139.751 Y85.962 E.35204
G1 X139.751 Y86.499 E.01695
G1 X131.866 Y78.614 E.35204
G1 X131.866 Y79.151 E.01695
G1 X139.751 Y87.036 E.35204
G1 X139.751 Y87.573 E.01695
G1 X131.866 Y79.688 E.35204
G1 X131.866 Y80.225 E.01695
G1 X139.751 Y88.11 E.35204
G1 X139.751 Y88.647 E.01695
G1 X131.866 Y80.762 E.35204
G1 X131.866 Y81.299 E.01695
G1 X139.751 Y89.183 E.35204
G1 X139.751 Y89.72 E.01695
G1 X131.866 Y81.835 E.35204
G1 X131.866 Y82.372 E.01695
G1 X139.751 Y90.257 E.35204
G1 X139.751 Y90.794 E.01695
G1 X131.866 Y82.909 E.35204
G1 X131.866 Y83.446 E.01695
G1 X139.751 Y91.331 E.35204
G1 X139.751 Y91.868 E.01695
G1 X131.866 Y83.983 E.35204
G1 X131.866 Y84.52 E.01695
G1 X139.751 Y92.405 E.35204
G1 X139.751 Y92.942 E.01695
G1 X131.866 Y85.057 E.35204
G1 X131.866 Y85.594 E.01695
G1 X139.751 Y93.479 E.35204
G1 X139.751 Y94.016 E.01695
G1 X131.866 Y86.131 E.35204
G1 X131.866 Y86.668 E.01695
G1 X139.751 Y94.553 E.35204
G1 X139.751 Y95.09 E.01695
G1 X131.866 Y87.205 E.35204
G1 X131.866 Y87.742 E.01695
G1 X139.751 Y95.627 E.35204
G1 X139.751 Y96.164 E.01695
G1 X131.866 Y88.279 E.35204
G1 X131.866 Y88.816 E.01695
G1 X139.751 Y96.701 E.35204
G1 X139.751 Y97.238 E.01695
G1 X131.85 Y89.336 E.35277
G1 X131.805 Y89.521 E.006
G1 X131.71 Y89.733 E.00733
G1 X139.751 Y97.774 E.35904
G1 X139.751 Y98.311 E.01695
G1 X131.47 Y90.03 E.36975
G1 X131.404 Y90.099 E.00301
G1 X131.155 Y90.252 E.00924
G1 X139.751 Y98.848 E.38381
G1 X139.751 Y99.253 E.01279
G1 X139.619 Y99.253 E.00416
G1 X130.727 Y90.361 E.39701
G1 X130.198 Y90.368 E.01672
G1 X139.083 Y99.253 E.39668
G1 X138.546 Y99.253 E.01695
G1 X129.661 Y90.368 E.39668
G1 X129.124 Y90.368 E.01695
G1 X138.009 Y99.253 E.39668
G1 X137.472 Y99.253 E.01695
G1 X128.587 Y90.368 E.39668
G1 X128.05 Y90.368 E.01695
G1 X136.935 Y99.253 E.39668
G1 X136.398 Y99.253 E.01695
G1 X127.513 Y90.368 E.39668
G1 X126.976 Y90.368 E.01695
G1 X135.861 Y99.253 E.39668
G1 X135.324 Y99.253 E.01695
G1 X126.439 Y90.368 E.39668
G1 X125.902 Y90.368 E.01695
G1 X134.787 Y99.253 E.39668
G1 X134.25 Y99.253 E.01695
G1 X125.365 Y90.368 E.39668
G1 X125.181 Y90.368 E.0058
G1 X124.838 Y90.378 E.01085
G1 X124.877 Y90.417 E.00176
G1 X125.154 Y90.535 E.00949
G1 X125.421 Y90.689 E.00973
G1 X125.914 Y91.067 E.01961
G1 X126.132 Y91.286 E.00974
G1 X126.51 Y91.779 E.01961
G1 X126.664 Y92.046 E.00974
G1 X126.777 Y92.317 E.00927
G1 X133.713 Y99.253 E.30969
G1 X133.176 Y99.253 E.01695
G1 X127.004 Y93.081 E.27559
G1 X127.063 Y93.529 E.01429
G1 X127.063 Y93.677 E.00466
G1 X132.639 Y99.253 E.24897
G1 X132.102 Y99.253 E.01695
G1 X127.063 Y94.214 E.225
G1 X127.063 Y94.751 E.01695
G1 X131.565 Y99.253 E.20102
G1 X131.028 Y99.253 E.01695
G1 X127.063 Y95.288 E.17705
G1 X127.007 Y95.769 E.01529
G1 X130.491 Y99.253 E.15557
G1 X129.955 Y99.253 E.01695
G1 X126.914 Y96.213 E.13575
G1 X126.761 Y96.597 E.01305
G1 X129.418 Y99.253 E.1186
G1 X128.881 Y99.253 E.01695
G1 X126.589 Y96.962 E.10232
G1 X126.37 Y97.28 E.01219
G1 X128.344 Y99.253 E.08811
G1 X127.807 Y99.253 E.01695
G1 X126.137 Y97.584 E.07454
G1 X125.864 Y97.847 E.01199
G1 X127.27 Y99.253 E.06278
G1 X126.733 Y99.253 E.01695
G1 X125.56 Y98.08 E.05237
G1 X125.421 Y98.187 E.00554
G1 X125.236 Y98.294 E.00672
G1 X126.196 Y99.253 E.04285
G1 X125.659 Y99.253 E.01695
G1 X124.866 Y98.461 E.0354
G1 X124.478 Y98.609 E.01313
G1 X125.122 Y99.253 E.02878
G1 X124.585 Y99.253 E.01695
G1 X124.021 Y98.689 E.02519
G1 X123.542 Y98.747 E.01523
G1 X124.048 Y99.253 E.0226
G1 X123.511 Y99.253 E.01695
G1 X123.008 Y98.75 E.02249
G1 X122.471 Y98.75 E.01695
G1 X122.974 Y99.253 E.02249
G1 X122.437 Y99.253 E.01695
G1 X121.934 Y98.75 E.02249
G1 X121.397 Y98.75 E.01695
G1 X121.9 Y99.253 E.02249
G1 X121.364 Y99.253 E.01695
G1 X120.86 Y98.75 E.02249
G1 X120.323 Y98.75 E.01695
G1 X120.827 Y99.253 E.02249
G1 X120.29 Y99.253 E.01695
G1 X119.786 Y98.75 E.02249
G1 X119.249 Y98.75 E.01695
G1 X119.753 Y99.253 E.02249
G1 X119.216 Y99.253 E.01695
G1 X118.712 Y98.75 E.02249
G1 X118.175 Y98.75 E.01695
G1 X118.679 Y99.253 E.02249
G1 X118.142 Y99.253 E.01695
G1 X117.608 Y98.72 E.02383
G1 X117.101 Y98.659 E.01612
G1 X116.978 Y98.626 E.00403
G1 X117.775 Y99.423 E.03558
G1 E-3.5 F3600
;WIPE_START
G1 F7200
G1 X116.978 Y98.626 E-.53528
G1 X117.101 Y98.659 E-.06056
G1 X117.608 Y98.72 E-.24259
G1 X118.142 Y99.253 E-.35859
G1 X118.622 Y99.253 E-.22799
;WIPE_END
G1 E-.075 F3600
G1 X116.482 Y90.613 F9000
G1 E5 F2400
G1 F1200
G1 X116.238 Y90.37 E.01087
G1 X115.7 Y90.368 E.01699
G1 X115.999 Y90.667 E.01335
G1 X115.691 Y90.896 E.01211
G1 X115.163 Y90.368 E.02358
G1 X114.626 Y90.368 E.01695
G1 X115.395 Y91.137 E.03431
G1 X115.135 Y91.414 E.01199
G1 X114.089 Y90.368 E.04668
G1 X113.552 Y90.368 E.01695
G1 X114.913 Y91.729 E.06073
G1 X114.716 Y92.069 E.01241
G1 X113.015 Y90.368 E.07593
G1 X112.478 Y90.368 E.01695
G1 X114.545 Y92.435 E.09228
G1 X114.428 Y92.855 E.01375
G1 X111.941 Y90.368 E.111
G1 X111.405 Y90.368 E.01695
G1 X114.333 Y93.296 E.13073
G1 X114.31 Y93.81 E.01624
G1 X110.868 Y90.368 E.15368
G1 X110.331 Y90.368 E.01695
G1 X114.479 Y94.517 E.18523
G1 E-3.5 F3600
;WIPE_START
G1 F7200
G1 X112.358 Y92.396 E-1.425
;WIPE_END
G1 E-.075 F3600
G1 X108.921 Y76.072 F9000
G1 E5 F2400
G1 F1200
G1 X108.717 Y75.869 E.00909
G1 X108.18 Y75.869 E.01695
G1 X108.751 Y76.439 E.02549
G1 X108.751 Y76.976 E.01695
G1 X107.644 Y75.869 E.04946
G1 X107.107 Y75.869 E.01695
G1 X108.751 Y77.513 E.07343
G1 X108.751 Y78.05 E.01695
G1 X106.57 Y75.869 E.09741
G1 X106.033 Y75.869 E.01695
G1 X108.751 Y78.587 E.12138
G1 X108.751 Y79.124 E.01695
G1 X105.496 Y75.869 E.14535
G1 X104.959 Y75.869 E.01695
G1 X108.751 Y79.661 E.16932
G1 X108.751 Y80.198 E.01695
G1 X104.422 Y75.869 E.1933
G1 X103.885 Y75.869 E.01695
G1 X108.751 Y80.735 E.21727
G1 X108.751 Y81.272 E.01695
G1 X103.348 Y75.869 E.24124
G1 X102.811 Y75.869 E.01695
G1 X108.751 Y81.809 E.26522
G1 X108.751 Y82.346 E.01695
G1 X102.274 Y75.869 E.28919
G1 X101.737 Y75.869 E.01695
G1 X108.751 Y82.883 E.31316
G1 X108.751 Y83.42 E.01695
G1 X101.2 Y75.869 E.33713
G1 X100.663 Y75.869 E.01695
G1 X108.751 Y83.957 E.36111
