; generated by PrusaSlicer 2.5.0+win64 on 2023-11-20 at 14:48:38 UTC

; 

; external perimeters extrusion width = 0.42mm
; perimeters extrusion width = 0.44mm
; infill extrusion width = 0.44mm
; solid infill extrusion width = 0.44mm
; top infill extrusion width = 0.40mm
; support material extrusion width = 0.36mm
; first layer extrusion width = 0.42mm

; external perimeters extrusion width = 0.42mm
; perimeters extrusion width = 0.44mm
; infill extrusion width = 0.44mm
; solid infill extrusion width = 0.44mm
; top infill extrusion width = 0.40mm
; support material extrusion width = 0.36mm
; first layer extrusion width = 0.42mm

M107
;TYPE:Custom
G90 ; use absolute coordinates
M83 ; extruder relative mode
M140 S60 ; set final bed temp
M104 S150 ; set temporary nozzle temp to prevent oozing during homing
G4 S10 ; allow partial nozzle warmup
G28 ; home all axis
G1 Z50 F240
G1 X2 Y10 F3000
M104 S215 ; set final nozzle temp
M190 S60 ; wait for bed temp to stabilize
M109 S215 ; wait for nozzle temp to stabilize
G1 Z0.28 F240
G92 E0
G1 Y140 E10 F1500 ; prime the nozzle
G1 X2.3 F5000
G92 E0
G1 Y10 E10 F1200 ; prime the nozzle
G92 E0
G21 ; set units to millimeters
G90 ; use absolute coordinates
M83 ; use relative distances for extrusion
; Filament gcode
M107
;LAYER_CHANGE
;Z:0.2
;HEIGHT:0.2
;BEFORE_LAYER_CHANGE
G92 E0
;0.2


G1 E-5 F3600
G1 Z.2 F9000
;AFTER_LAYER_CHANGE
;0.2
G1 X86.546 Y99.884
G1 E5 F2400
M204 S500
;TYPE:Skirt/Brim
;WIDTH:0.42
G1 F1200
G1 X87.73 Y99.158 E.04355
G1 X89.047 Y98.826 E.04258
G1 X141.929 Y98.829 E1.65808
G1 X142.878 Y99.013 E.03029
G1 X143.786 Y99.404 E.03101
G1 X145.005 Y100.428 E.0499
G1 X145.796 Y101.645 E.04551
G1 X146.157 Y103.028 E.04481
G1 X146.157 Y145.516 E1.33221
G1 X145.524 Y147.62 E.06887
G1 X145.063 Y148.277 E.02516
G1 X144.505 Y148.869 E.02552
G1 X143.128 Y149.718 E.05073
G1 X141.546 Y150.097 E.05098
G1 X89.593 Y150.096 E1.62896
G1 X88.615 Y149.963 E.03096
G1 X87.661 Y149.641 E.03156
G1 X86.217 Y148.579 E.05621
G1 X85.95 Y148.308 E.01192
G1 X85.17 Y146.947 E.04917
G1 X84.843 Y145.442 E.04828
G1 X84.843 Y102.992 E1.33099
G1 X85.486 Y101.079 E.0633
G1 X85.942 Y100.488 E.0234
G1 X86.504 Y99.926 E.0249
G1 X86.771 Y100.193 F9000
G1 F1200
G1 X87.852 Y99.515 E.04002
G1 X89.071 Y99.203 E.03946
G1 X141.911 Y99.206 E1.65674
G1 X142.784 Y99.379 E.02791
G1 X143.61 Y99.738 E.02823
G1 X144.74 Y100.697 E.04647
G1 X145.439 Y101.771 E.04018
G1 X145.779 Y103.053 E.04157
G1 X145.779 Y145.489 E1.33057
G1 X145.198 Y147.428 E.06348
G1 X144.762 Y148.049 E.02377
G1 X144.248 Y148.591 E.02344
G1 X142.957 Y149.381 E.04746
G1 X141.525 Y149.72 E.04615
G1 X89.606 Y149.718 E1.62787
G1 X88.684 Y149.592 E.02917
G1 X87.811 Y149.294 E.02893
G1 X86.455 Y148.286 E.05299
G1 X86.238 Y148.062 E.00978
G1 X85.532 Y146.838 E.04431
G1 X85.221 Y145.422 E.04546
G1 X85.221 Y103.023 E1.32938
G1 X85.805 Y101.283 E.05754
G1 X86.218 Y100.746 E.02127
G1 X86.728 Y100.235 E.02263
G1 X86.995 Y100.502 F9000
G1 F1200
G1 X87.048 Y100.448 E.00237
G1 X88.024 Y99.852 E.03586
G1 X89.095 Y99.58 E.03463
G1 X141.891 Y99.583 E1.65541
G1 X142.689 Y99.744 E.0255
G1 X143.431 Y100.072 E.02545
G1 X144.473 Y100.965 E.04302
G1 X145.106 Y101.949 E.03669
G1 X145.402 Y103.077 E.03655
G1 X145.402 Y145.462 E1.32896
G1 X144.872 Y147.237 E.05811
G1 X144.479 Y147.8 E.02151
G1 X143.992 Y148.314 E.02222
G1 X142.84 Y149.021 E.04238
G1 X141.502 Y149.343 E.04313
G1 X89.619 Y149.341 E1.62677
G1 X88.789 Y149.229 E.02626
G1 X87.962 Y148.947 E.02739
G1 X86.694 Y147.995 E.04971
G1 X86.527 Y147.819 E.00761
G1 X85.874 Y146.676 E.04127
G1 X85.598 Y145.402 E.04089
G1 X85.598 Y103.054 E1.3278
G1 X86.123 Y101.487 E.05179
G1 X86.494 Y101.003 E.01912
G1 X86.952 Y100.544 E.02035
G1 X87.219 Y100.811 F9000
G1 F1200
G1 X87.299 Y100.731 E.00356
G1 X88.147 Y100.21 E.03119
G1 X89.119 Y99.957 E.0315
G1 X141.872 Y99.96 E1.65402
G1 X142.591 Y100.109 E.02304
G1 X143.251 Y100.404 E.02266
G1 X144.205 Y101.232 E.0396
G1 X144.749 Y102.076 E.03149
G1 X145.025 Y103.102 E.03331
G1 X145.025 Y145.434 E1.32731
G1 X144.545 Y147.046 E.05274
G1 X144.178 Y147.572 E.0201
G1 X143.736 Y148.036 E.02008
G1 X142.67 Y148.684 E.03912
G1 X141.48 Y148.966 E.03833
G1 X89.632 Y148.964 E1.62568
G1 X88.859 Y148.858 E.02446
G1 X88.114 Y148.601 E.0247
G1 X86.936 Y147.705 E.0464
G1 X86.817 Y147.578 E.00547
G1 X86.236 Y146.567 E.03657
G1 X85.975 Y145.381 E.03806
G1 X85.975 Y103.084 E1.32619
G1 X86.442 Y101.691 E.04607
G1 X86.769 Y101.261 E.01695
G1 X87.177 Y100.853 E.01806
G1 X87.443 Y101.12 F9000
G1 F1200
G1 X87.551 Y101.012 E.00477
G1 X88.272 Y100.567 E.02658
G1 X89.144 Y100.334 E.02832
G1 X141.853 Y100.338 E1.65263
G1 X142.456 Y100.462 E.01933
G1 X143.071 Y100.736 E.0211
G1 X143.935 Y101.496 E.03609
G1 X144.415 Y102.253 E.02809
G1 X144.648 Y103.126 E.02835
G1 X144.648 Y145.407 E1.32569
G1 X144.218 Y146.857 E.0474
G1 X143.895 Y147.323 E.01779
G1 X143.48 Y147.758 E.01885
G1 X142.552 Y148.324 E.03408
G1 X141.458 Y148.589 E.0353
G1 X89.645 Y148.587 E1.62455
G1 X88.93 Y148.488 E.02263
G1 X88.269 Y148.256 E.02198
G1 X87.181 Y147.418 E.04305
G1 X87.11 Y147.34 E.00328
G1 X86.578 Y146.406 E.03373
G1 X86.352 Y145.361 E.0335
G1 X86.352 Y103.115 E1.32461
G1 X86.761 Y101.894 E.04038
G1 X87.045 Y101.518 E.01477
G1 X87.401 Y101.162 E.01576
G1 X87.667 Y101.429 F9000
G1 F1200
G1 X87.802 Y101.294 E.00598
G1 X88.399 Y100.922 E.02203
G1 X89.17 Y100.711 E.02509
G1 X141.832 Y100.715 E1.65118
G1 X142.357 Y100.826 E.01681
G1 X142.888 Y101.067 E.01829
G1 X143.665 Y101.76 E.03263
G1 X144.059 Y102.38 E.02306
G1 X144.271 Y103.152 E.0251
G1 X144.271 Y145.38 E1.32403
G1 X143.891 Y146.666 E.04206
G1 X143.593 Y147.095 E.01636
G1 X143.226 Y147.478 E.01665
G1 X142.383 Y147.986 E.03084
G1 X141.436 Y148.212 E.03054
G1 X89.657 Y148.21 E1.62348
G1 X89.037 Y148.126 E.01965
G1 X88.423 Y147.91 E.02039
G1 X87.43 Y147.134 E.03954
G1 X86.94 Y146.295 E.03044
G1 X86.729 Y145.34 E.03066
G1 X86.729 Y103.145 E1.323
G1 X87.081 Y102.095 E.03472
G1 X87.322 Y101.775 E.01257
G1 X87.625 Y101.471 E.01345
G1 X87.892 Y101.738 F9000
G1 F1200
G1 X88.054 Y101.575 E.00721
G1 X88.528 Y101.277 E.01755
G1 X89.197 Y101.088 E.02179
G1 X141.811 Y101.092 E1.64967
G1 X142.254 Y101.189 E.01423
G1 X142.702 Y101.397 E.01548
G1 X143.393 Y102.022 E.0292
G1 X143.705 Y102.51 E.01818
G1 X143.894 Y103.179 E.02179
G1 X143.894 Y145.353 E1.32234
G1 X143.564 Y146.477 E.03671
G1 X143.293 Y146.867 E.01491
G1 X142.972 Y147.199 E.01445
G1 X142.265 Y147.627 E.02591
G1 X141.413 Y147.834 E.02751
G1 X89.671 Y147.833 E1.62234
G1 X89.109 Y147.755 E.0178
G1 X88.58 Y147.566 E.01759
G1 X87.706 Y146.872 E.03502
G1 X87.301 Y146.183 E.02506
G1 X87.106 Y145.319 E.02776
G1 X87.106 Y103.176 E1.32136
G1 X87.402 Y102.296 E.02911
G1 X87.598 Y102.031 E.01034
G1 X87.849 Y101.781 E.01112
G1 X88.116 Y102.047 F9000
G1 F1200
G1 X88.307 Y101.856 E.00846
G1 X88.661 Y101.631 E.01318
G1 X89.225 Y101.465 E.01842
G1 X141.789 Y101.469 E1.64809
G1 X142.148 Y101.552 E.01157
G1 X142.514 Y101.725 E.01268
G1 X143.119 Y102.282 E.0258
G1 X143.351 Y102.644 E.01347
G1 X143.517 Y103.207 E.01841
G1 X143.517 Y145.327 E1.32063
G1 X143.236 Y146.289 E.03142
G1 X143.01 Y146.617 E.01248
G1 X142.719 Y146.918 E.01314
G1 X142.098 Y147.288 E.02267
G1 X141.391 Y147.457 E.02279
G1 X89.684 Y147.456 E1.62122
G1 X89.182 Y147.385 E.01591
G1 X88.74 Y147.223 E.01475
G1 X87.972 Y146.602 E.03097
G1 X87.643 Y146.023 E.02089
G1 X87.483 Y145.299 E.02325
G1 X87.483 Y103.207 E1.31977
G1 X87.723 Y102.495 E.02354
G1 X87.876 Y102.287 E.00808
G1 X88.073 Y102.09 E.00877
G1 X88.34 Y102.356 F9000
G1 F1200
G1 X88.559 Y102.137 E.00973
G1 X88.799 Y101.983 E.00892
G1 X89.255 Y101.842 E.01496
G1 X141.767 Y101.846 E1.64649
G1 X142.005 Y101.901 E.00767
G1 X142.325 Y102.052 E.01109
G1 X142.844 Y102.54 E.02233
G1 X142.999 Y102.781 E.00898
G1 X143.14 Y103.237 E.01495
G1 X143.14 Y145.3 E1.31887
G1 X142.907 Y146.1 E.02612
G1 X142.709 Y146.39 E.011
G1 X142.468 Y146.635 E.01078
G1 X141.933 Y146.948 E.01943
G1 X141.37 Y147.08 E.01815
G1 X89.697 Y147.079 E1.62016
G1 X89.292 Y147.023 E.01281
G1 X88.898 Y146.88 E.01314
G1 X88.279 Y146.381 E.02491
G1 X88.004 Y145.91 E.01713
G1 X87.86 Y145.277 E.02033
G1 X87.86 Y103.238 E1.31811
G1 X88.045 Y102.693 E.01806
G1 X88.153 Y102.543 E.00579
G1 X88.298 Y102.399 E.00639
G1 X88.564 Y102.665 F9000
G1 F1200
G1 X88.813 Y102.417 E.01102
G1 X88.942 Y102.332 E.00484
G1 X89.286 Y102.219 E.01136
G1 X141.745 Y102.223 E1.6448
G1 X141.862 Y102.25 E.00377
G1 X142.135 Y102.38 E.00947
G1 X142.566 Y102.796 E.0188
G1 X142.65 Y102.924 E.00479
G1 X142.763 Y103.268 E.01136
G1 X142.763 Y145.274 E1.31705
G1 X142.578 Y145.915 E.02091
G1 X142.427 Y146.138 E.00846
G1 X142.218 Y146.352 E.00936
G1 X141.772 Y146.606 E.0161
G1 X141.349 Y146.703 E.01362
G1 X89.711 Y146.702 E1.61908
G1 X89.367 Y146.653 E.01089
G1 X89.062 Y146.539 E.01021
G1 X88.549 Y146.115 E.02086
G1 X88.348 Y145.753 E.013
G1 X88.237 Y145.257 E.01593
G1 X88.237 Y103.27 E1.31648
G1 X88.369 Y102.887 E.0127
G1 X88.522 Y102.708 E.00738
G1 X88.789 Y102.974 F9000
G1 F1200
G1 X89.067 Y102.696 E.01235
G1 X89.321 Y102.596 E.00856
G1 X141.693 Y102.596 E1.64207
G1 X141.943 Y102.706 E.00856
G1 X142.286 Y103.049 E.01522
G1 X142.386 Y103.303 E.00856
G1 X142.386 Y145.248 E1.31514
G1 X142.249 Y145.729 E.01568
G1 X142.125 Y145.912 E.00692
G1 X141.972 Y146.065 E.00679
G1 X141.615 Y146.262 E.01279
G1 X141.329 Y146.326 E.0092
G1 X89.725 Y146.325 E1.618
G1 X89.444 Y146.283 E.00889
G1 X89.227 Y146.199 E.00731
G1 X88.857 Y145.896 E.01501
G1 X88.708 Y145.638 E.00933
G1 X88.614 Y145.235 E.01298
G1 X88.614 Y103.303 E1.31472
G1 X88.696 Y103.076 E.00757
G1 X88.746 Y103.017 E.00244
G1 X89.02 Y103.276 F9000
G1 F1200
G1 X89.294 Y103.002 E.01215
G1 X89.363 Y102.973 E.00235
G1 X141.637 Y102.973 E1.639
G1 X141.706 Y103.002 E.00235
G1 X141.98 Y103.276 E.01215
G1 X142.009 Y103.345 E.00235
G1 X142.009 Y145.222 E1.31302
G1 X141.917 Y145.548 E.01062
G1 X141.844 Y145.66 E.00418
G1 X141.727 Y145.777 E.0052
G1 X141.464 Y145.916 E.00931
G1 X141.309 Y145.949 E.00496
G1 X89.74 Y145.948 E1.61692
G1 X89.527 Y145.915 E.00677
G1 X89.397 Y145.861 E.00439
G1 X89.159 Y145.669 E.00958
G1 X89.066 Y145.517 E.0056
G1 X88.991 Y145.211 E.00988
G1 X88.997 Y103.331 E1.3131
G1 X89.368 Y103.461 F9000
G1 F1200
G1 X89.479 Y103.351 E.0049
G1 X141.521 Y103.351 E1.63175
G1 X141.632 Y103.461 E.0049
G1 X141.632 Y145.196 E1.30858
G1 X141.559 Y145.411 E.0071
G1 X141.484 Y145.487 E.00336
G1 X141.292 Y145.572 E.00659
G1 X89.756 Y145.571 E1.61586
G1 X89.575 Y145.529 E.00582
G1 X89.452 Y145.431 E.00494
G1 X89.421 Y145.385 E.00174
G1 X89.368 Y145.185 E.00648
G1 X89.368 Y103.521 E1.30635
G1 E-3.5 F3600
;WIPE_START
G1 F7200
G1 X89.479 Y103.351 E-.09647
G1 X92.276 Y103.351 E-1.32853
;WIPE_END
G1 E-.075 F3600
G1 X89.649 Y83.745 F9000
G1 E5 F2400
G1 F1200
G1 X88.48 Y83.535 E.03726
G1 X87.35 Y83.035 E.03873
G1 X86.381 Y82.257 E.03896
G1 X85.64 Y81.289 E.03823
G1 X85.011 Y79.17 E.06931
G1 X85.011 Y52.904 E.82355
G1 X85.239 Y51.681 E.03901
G1 X85.735 Y50.585 E.03771
G1 X86.525 Y49.616 E.03922
G1 X87.494 Y48.885 E.03804
G1 X89.591 Y48.271 E.06853
G1 X141.427 Y48.281 E1.62528
G1 X142.437 Y48.461 E.03215
G1 X143.419 Y48.856 E.03318
G1 X144.468 Y49.601 E.04034
G1 X145.512 Y51.047 E.05593
G1 X145.985 Y52.846 E.05833
G1 X145.985 Y79.112 E.82355
G1 X145.757 Y80.335 E.03901
G1 X145.261 Y81.431 E.03771
G1 X144.47 Y82.4 E.03923
G1 X143.502 Y83.131 E.03804
G1 X141.405 Y83.745 E.0685
G1 X89.709 Y83.745 E1.62088
G1 X89.709 Y83.368 F9000
G1 F1200
G1 X88.57 Y83.168 E.03626
G1 X87.527 Y82.701 E.03583
G1 X86.637 Y81.979 E.03595
G1 X85.961 Y81.089 E.03505
G1 X85.388 Y79.143 E.06361
G1 X85.388 Y52.922 E.82214
G1 X85.605 Y51.774 E.03662
G1 X86.067 Y50.765 E.03479
G1 X86.801 Y49.874 E.03622
G1 X87.692 Y49.208 E.03487
G1 X89.618 Y48.648 E.06288
G1 X141.41 Y48.658 E1.62391
G1 X142.35 Y48.829 E.02994
G1 X143.256 Y49.196 E.03066
G1 X144.222 Y49.889 E.03727
G1 X145.185 Y51.237 E.05195
G1 X145.608 Y52.87 E.05288
G1 X145.608 Y79.094 E.82225
G1 X145.391 Y80.242 E.03662
G1 X144.929 Y81.251 E.0348
G1 X144.194 Y82.143 E.03623
G1 X143.303 Y82.808 E.03487
G1 X141.378 Y83.368 E.06286
G1 X89.769 Y83.368 E1.61816
G1 X89.769 Y82.991 F9000
G1 F1200
G1 X89.684 Y82.991 E.00267
G1 X88.662 Y82.802 E.03259
G1 X87.706 Y82.369 E.03291
G1 X86.894 Y81.703 E.03293
G1 X86.283 Y80.89 E.03187
G1 X85.765 Y79.116 E.05794
G1 X85.765 Y52.939 E.82077
G1 X85.958 Y51.908 E.03289
G1 X86.375 Y50.984 E.03179
G1 X87.046 Y50.162 E.03328
G1 X87.89 Y49.53 E.03305
G1 X89.644 Y49.025 E.05723
G1 X141.392 Y49.035 E1.62253
G1 X142.261 Y49.196 E.0277
G1 X143.091 Y49.536 E.02813
G1 X143.975 Y50.175 E.03419
G1 X144.857 Y51.425 E.04796
G1 X145.231 Y52.893 E.04749
G1 X145.231 Y79.077 E.82098
G1 X145.038 Y80.108 E.03289
G1 X144.621 Y81.032 E.0318
G1 X143.949 Y81.855 E.03328
G1 X143.105 Y82.486 E.03305
G1 X141.352 Y82.991 E.0572
G1 X89.829 Y82.991 E1.61546
G1 X89.829 Y82.614 F9000
G1 F1200
G1 X89.702 Y82.614 E.00399
G1 X88.756 Y82.436 E.0302
G1 X87.887 Y82.037 E.02997
G1 X87.153 Y81.428 E.0299
G1 X86.606 Y80.693 E.02872
G1 X86.142 Y79.09 E.05233
G1 X86.142 Y52.957 E.81937
G1 X86.324 Y52.002 E.0305
G1 X86.707 Y51.164 E.02889
G1 X87.321 Y50.42 E.03025
G1 X88.087 Y49.854 E.02985
G1 X89.67 Y49.402 E.05163
G1 X141.375 Y49.412 E1.62116
G1 X142.172 Y49.563 E.02543
G1 X142.927 Y49.876 E.02564
G1 X143.688 Y50.421 E.02934
G1 X144.501 Y51.555 E.04374
G1 X144.854 Y52.917 E.04413
G1 X144.854 Y79.059 E.81965
G1 X144.672 Y80.014 E.0305
G1 X144.288 Y80.852 E.02889
G1 X143.674 Y81.596 E.03025
G1 X142.909 Y82.162 E.02984
G1 X141.326 Y82.614 E.05161
G1 X89.889 Y82.614 E1.61276
G1 X89.889 Y82.237 F9000
G1 F1200
G1 X89.719 Y82.237 E.00533
G1 X88.889 Y82.082 E.02648
G1 X88.106 Y81.729 E.02695
G1 X87.441 Y81.184 E.02695
G1 X86.929 Y80.495 E.0269
G1 X86.519 Y79.064 E.04669
G1 X86.519 Y52.976 E.81798
G1 X86.689 Y52.097 E.02806
G1 X87.038 Y51.346 E.02596
G1 X87.595 Y50.68 E.02722
G1 X88.281 Y50.178 E.02666
G1 X89.696 Y49.779 E.04608
G1 X141.356 Y49.789 E1.61978
G1 X142.08 Y49.929 E.02312
G1 X142.76 Y50.215 E.02313
G1 X143.441 Y50.707 E.02634
G1 X144.172 Y51.743 E.03976
G1 X144.477 Y52.94 E.03873
G1 X144.477 Y79.04 E.81835
G1 X144.306 Y79.919 E.02806
G1 X143.957 Y80.67 E.02596
G1 X143.4 Y81.336 E.02722
G1 X142.714 Y81.838 E.02665
G1 X141.3 Y82.237 E.04606
G1 X89.949 Y82.237 E1.61007
G1 X89.949 Y81.86 F9000
G1 F1200
G1 X89.737 Y81.86 E.00665
G1 X88.983 Y81.716 E.02408
G1 X88.287 Y81.397 E.02401
G1 X87.701 Y80.909 E.02389
G1 X87.253 Y80.3 E.02371
G1 X86.896 Y79.038 E.04113
G1 X86.896 Y52.993 E.81661
G1 X87.042 Y52.232 E.02431
G1 X87.344 Y51.568 E.02287
G1 X87.869 Y50.941 E.02564
G1 X88.474 Y50.504 E.0234
G1 X89.721 Y50.156 E.04059
G1 X141.337 Y50.166 E1.61839
G1 X141.987 Y50.295 E.02076
G1 X142.591 Y50.553 E.0206
G1 X143.193 Y50.994 E.02339
G1 X143.816 Y51.871 E.03376
G1 X144.1 Y52.965 E.03541
G1 X144.1 Y79.023 E.81703
G1 X143.954 Y79.784 E.02431
G1 X143.651 Y80.448 E.02287
G1 X143.127 Y81.075 E.02564
G1 X142.521 Y81.512 E.0234
G1 X141.275 Y81.86 E.04058
G1 X90.009 Y81.86 E1.6074
G1 X90.009 Y81.483 F9000
G1 F1200
G1 X89.756 Y81.483 E.00795
G1 X89.077 Y81.351 E.02169
G1 X88.509 Y81.091 E.01959
G1 X87.961 Y80.635 E.02234
G1 X87.579 Y80.107 E.02044
G1 X87.273 Y79.013 E.03563
G1 X87.273 Y53.012 E.81523
G1 X87.407 Y52.328 E.02186
G1 X87.675 Y51.751 E.01994
G1 X88.14 Y51.204 E.02252
G1 X88.665 Y50.831 E.02018
G1 X89.746 Y50.533 E.03517
G1 X141.319 Y50.543 E1.61703
G1 X141.857 Y50.649 E.01719
G1 X142.424 Y50.892 E.01934
G1 X142.907 Y51.241 E.01868
G1 X143.461 Y52.003 E.02957
G1 X143.723 Y52.99 E.03199
G1 X143.723 Y79.004 E.81566
G1 X143.588 Y79.688 E.02186
G1 X143.321 Y80.265 E.01994
G1 X142.856 Y80.812 E.02252
G1 X142.331 Y81.185 E.02018
G1 X141.25 Y81.483 E.03515
G1 X90.069 Y81.483 E1.60473
G1 X90.069 Y81.106 F9000
G1 F1200
G1 X89.775 Y81.106 E.00923
G1 X89.174 Y80.986 E.01921
G1 X88.692 Y80.761 E.01668
G1 X88.224 Y80.364 E.01924
G1 X87.906 Y79.917 E.01722
G1 X87.65 Y78.988 E.03021
G1 X87.65 Y53.031 E.81384
G1 X87.772 Y52.426 E.01936
G1 X88.004 Y51.937 E.01697
G1 X88.409 Y51.469 E.01939
G1 X88.853 Y51.159 E.01699
G1 X89.771 Y50.91 E.02982
G1 X141.299 Y50.921 E1.61565
