; generated by PrusaSlicer 2.5.0+win64 on 2023-11-20 at 13:54:47 UTC

; 

; external perimeters extrusion width = 0.42mm
; perimeters extrusion width = 0.44mm
; infill extrusion width = 0.44mm
; solid infill extrusion width = 0.44mm
; top infill extrusion width = 0.40mm
; support material extrusion width = 0.36mm
; first layer extrusion width = 0.42mm

; external perimeters extrusion width = 0.42mm
; perimeters extrusion width = 0.44mm
; infill extrusion width = 0.44mm
; solid infill extrusion width = 0.44mm
; top infill extrusion width = 0.40mm
; support material extrusion width = 0.36mm
; first layer extrusion width = 0.42mm

M107
;TYPE:Custom
G90 ; use absolute coordinates
M83 ; extruder relative mode
M140 S65 ; set final bed temp
M104 S150 ; set temporary nozzle temp to prevent oozing during homing
G4 S10 ; allow partial nozzle warmup
G28 ; home all axis
G1 Z50 F240
G1 X2 Y10 F3000
M104 S215 ; set final nozzle temp
M190 S65 ; wait for bed temp to stabilize
M109 S215 ; wait for nozzle temp to stabilize
G1 Z0.28 F240
G92 E0
G1 Y140 E10 F1500 ; prime the nozzle
G1 X2.3 F5000
G92 E0
G1 Y10 E10 F1200 ; prime the nozzle
G92 E0
G21 ; set units to millimeters
G90 ; use absolute coordinates
M83 ; use relative distances for extrusion
; Filament gcode
M107
;LAYER_CHANGE
;Z:0.2
;HEIGHT:0.2
;BEFORE_LAYER_CHANGE
G92 E0
;0.2


G1 E-5 F3600
G1 Z.2 F9000
;AFTER_LAYER_CHANGE
;0.2
G1 X68.712 Y93.685
G1 E5 F2400
M204 S500
;TYPE:Skirt/Brim
;WIDTH:0.42
G1 F1200
G1 X69.63 Y93.196 E.03261
G1 X71.522 Y92.609 E.06212
G1 X72.856 Y92.444 E.04215
G1 X116.971 Y92.437 E1.38318
G1 X160.039 Y92.613 E1.35037
G1 X161.947 Y92.937 E.06069
G1 X163.723 Y93.687 E.06046
G1 X165.13 Y94.675 E.0539
G1 X165.867 Y95.392 E.03224
G1 X166.505 Y96.184 E.03189
G1 X167.037 Y97.037 E.03152
G1 X167.554 Y98.174 E.03915
G1 X167.935 Y99.536 E.04435
G1 X168.087 Y100.862 E.04186
G1 X168.087 Y152.781 E1.62786
G1 X167.904 Y154.155 E.04348
G1 X167.693 Y154.954 E.02589
G1 X167.104 Y156.358 E.04774
G1 X166.519 Y157.31 E.03503
G1 X165.416 Y158.581 E.05277
G1 X164.619 Y159.247 E.03259
G1 X163.768 Y159.796 E.03171
G1 X163.005 Y160.179 E.02679
G1 X162.003 Y160.548 E.03347
G1 X161.163 Y160.759 E.02716
G1 X159.934 Y160.908 E.03882
G1 X116.957 Y161.077 E1.34752
G1 X72.839 Y161.077 E1.38328
G1 X71.535 Y160.913 E.04122
G1 X69.982 Y160.452 E.05078
G1 X69.261 Y160.12 E.02491
G1 X68.251 Y159.501 E.03713
G1 X67.627 Y159.01 E.02491
G1 X66.808 Y158.191 E.03631
G1 X65.85 Y156.878 E.05097
G1 X65.125 Y155.312 E.0541
G1 X64.928 Y154.672 E.021
G1 X64.665 Y153.028 E.0522
G1 X64.666 Y100.819 E1.63698
G1 X64.869 Y99.073 E.05513
G1 X65.077 Y98.325 E.02434
G1 X65.513 Y97.253 E.03627
G1 X65.886 Y96.573 E.02434
G1 X66.741 Y95.367 E.04635
G1 X67.467 Y94.622 E.03261
G1 X68.664 Y93.721 E.04698
G1 E-3.5 F3600
;WIPE_START
G1 F7200
G1 X69.63 Y93.196 E-.52219
G1 X71.445 Y92.633 E-.90281
;WIPE_END
G1 E-.075 F3600
G1 X70.759 Y96.791 F9000
G1 E5 F2400
G1 F1200
G1 X70.97 Y96.647 E.00801
G1 X72.956 Y96.101 E.06458
G1 X115.373 Y96.104 E1.32995
G1 X116.321 Y96.288 E.03029
G1 X117.229 Y96.679 E.03101
G1 X118.448 Y97.702 E.0499
G1 X119.239 Y98.92 E.04551
G1 X119.6 Y100.303 E.04481
G1 X119.6 Y153.152 E1.65705
G1 X119.349 Y154.319 E.03741
G1 X118.8 Y155.383 E.03756
G1 X117.237 Y156.832 E.06681
G1 X116.298 Y157.233 E.03204
G1 X115.325 Y157.414 E.03102
G1 X72.955 Y157.415 E1.32847
G1 X71.627 Y157.14 E.04253
G1 X70.417 Y156.532 E.04246
G1 X68.946 Y154.905 E.06879
G1 X68.62 Y154.142 E.02599
G1 X68.328 Y152.843 E.04176
G1 X68.33 Y100.811 E1.63143
G1 X68.601 Y99.392 E.04528
G1 X69.287 Y98.092 E.04609
G1 X70.039 Y97.282 E.03465
G1 X70.709 Y96.825 E.02545
G1 X70.919 Y97.136 F9000
G1 F1200
G1 X71.155 Y96.977 E.0089
G1 X72.981 Y96.478 E.05935
G1 X115.354 Y96.481 E1.32858
G1 X116.227 Y96.654 E.02791
G1 X117.053 Y97.013 E.02823
G1 X118.183 Y97.972 E.04647
G1 X118.882 Y99.046 E.04018
G1 X119.223 Y100.327 E.04157
G1 X119.223 Y153.131 E1.65563
G1 X118.986 Y154.213 E.03471
G1 X118.481 Y155.18 E.03421
G1 X117.058 Y156.499 E.06084
G1 X116.207 Y156.867 E.02908
G1 X115.307 Y157.036 E.0287
G1 X72.974 Y157.038 E1.32732
G1 X71.774 Y156.792 E.03841
G1 X70.634 Y156.219 E.04002
G1 X69.28 Y154.726 E.06319
G1 X68.984 Y154.041 E.02339
G1 X68.705 Y152.821 E.03922
G1 X68.707 Y100.829 E1.63018
G1 X68.966 Y99.492 E.04271
G1 X69.58 Y98.331 E.04119
G1 X70.3 Y97.555 E.03319
G1 X70.87 Y97.169 E.02156
G1 X71.081 Y97.482 F9000
G1 F1200
G1 X71.34 Y97.307 E.0098
G1 X73.005 Y96.855 E.05411
G1 X115.335 Y96.858 E1.3272
G1 X116.132 Y97.019 E.0255
G1 X116.874 Y97.347 E.02545
G1 X117.916 Y98.24 E.04302
G1 X118.549 Y99.224 E.03669
G1 X118.846 Y100.352 E.03655
G1 X118.846 Y153.111 E1.65425
G1 X118.64 Y154.061 E.03045
G1 X118.162 Y154.976 E.03239
G1 X116.877 Y156.166 E.0549
G1 X116.114 Y156.501 E.02613
G1 X115.289 Y156.659 E.02635
G1 X72.994 Y156.661 E1.32613
G1 X71.876 Y156.428 E.03579
G1 X70.836 Y155.899 E.0366
G1 X69.613 Y154.547 E.05716
G1 X69.347 Y153.938 E.02083
G1 X69.082 Y152.799 E.03665
G1 X69.084 Y100.846 E1.62895
G1 X69.313 Y99.641 E.03847
G1 X69.875 Y98.567 E.03802
G1 X70.53 Y97.854 E.03034
G1 X71.031 Y97.515 E.01897
G1 X71.24 Y97.827 F9000
G1 F1200
G1 X71.523 Y97.637 E.0107
G1 X73.03 Y97.232 E.04893
G1 X115.315 Y97.235 E1.32581
G1 X116.035 Y97.384 E.02304
G1 X116.694 Y97.679 E.02266
G1 X117.648 Y98.506 E.0396
G1 X118.193 Y99.351 E.03149
G1 X118.468 Y100.377 E.03331
G1 X118.468 Y153.09 E1.6528
G1 X118.278 Y153.954 E.02771
G1 X117.844 Y154.771 E.02902
G1 X116.696 Y155.835 E.04908
G1 X116.02 Y156.135 E.02319
G1 X115.27 Y156.282 E.02395
G1 X73.014 Y156.284 E1.32492
G1 X71.98 Y156.065 E.03314
G1 X71.04 Y155.58 E.03317
G1 X69.945 Y154.367 E.05122
G1 X69.71 Y153.833 E.01828
G1 X69.459 Y152.777 E.03404
G1 X69.461 Y100.863 E1.62772
G1 X69.661 Y99.789 E.03427
G1 X70.17 Y98.803 E.03479
G1 X70.792 Y98.126 E.02882
G1 X71.19 Y97.86 E.015
G1 X71.399 Y98.174 F9000
G1 F1200
G1 X71.707 Y97.968 E.0116
G1 X73.054 Y97.609 E.04373
G1 X115.296 Y97.612 E1.32445
G1 X115.899 Y97.737 E.01932
G1 X116.514 Y98.011 E.0211
G1 X117.379 Y98.771 E.03609
G1 X117.858 Y99.528 E.02809
G1 X118.091 Y100.401 E.02835
G1 X118.091 Y153.069 E1.65136
G1 X117.916 Y153.844 E.02492
G1 X117.528 Y154.564 E.02565
G1 X116.514 Y155.503 E.04331
G1 X115.886 Y155.782 E.02154
G1 X115.252 Y155.905 E.02025
G1 X73.034 Y155.907 E1.32371
G1 X72.085 Y155.702 E.03044
G1 X71.245 Y155.262 E.02974
G1 X70.277 Y154.186 E.04538
G1 X70.072 Y153.727 E.01575
G1 X69.837 Y152.754 E.03138
G1 X69.838 Y100.881 E1.62644
G1 X70.026 Y99.886 E.03175
G1 X70.466 Y99.038 E.02996
G1 X71.021 Y98.427 E.0259
G1 X71.35 Y98.207 E.01238
G1 X71.555 Y98.52 F9000
G1 F1200
G1 X71.888 Y98.3 E.01249
G1 X73.079 Y97.986 E.03861
G1 X115.275 Y97.99 E1.32305
G1 X115.8 Y98.101 E.01681
G1 X116.331 Y98.342 E.01829
G1 X117.108 Y99.035 E.03263
G1 X117.503 Y99.655 E.02306
G1 X117.714 Y100.427 E.0251
G1 X117.714 Y153.047 E1.64985
G1 X117.555 Y153.732 E.02207
G1 X117.212 Y154.355 E.02229
G1 X116.33 Y155.172 E.03769
G1 X115.79 Y155.417 E.01859
G1 X115.233 Y155.528 E.01781
G1 X73.054 Y155.53 E1.3225
G1 X72.237 Y155.356 E.02618
G1 X71.45 Y154.944 E.02785
G1 X70.608 Y154.003 E.03958
G1 X70.433 Y153.619 E.01325
G1 X70.214 Y152.731 E.02868
G1 X70.215 Y100.898 E1.62518
G1 X70.375 Y100.033 E.0276
G1 X70.763 Y99.273 E.02675
G1 X71.284 Y98.698 E.02433
G1 X71.505 Y98.553 E.0083
G1 X71.713 Y98.867 F9000
G1 F1200
G1 X72.069 Y98.632 E.01339
G1 X73.102 Y98.363 E.03347
G1 X115.254 Y98.367 E1.32164
G1 X115.698 Y98.464 E.01423
G1 X116.145 Y98.672 E.01548
G1 X116.836 Y99.297 E.0292
G1 X117.148 Y99.785 E.01818
G1 X117.337 Y100.454 E.02179
G1 X117.337 Y153.026 E1.64836
G1 X117.212 Y153.574 E.01762
G1 X116.897 Y154.147 E.02051
G1 X116.145 Y154.843 E.03212
G1 X115.691 Y155.052 E.01567
G1 X115.213 Y155.151 E.01531
G1 X73.074 Y155.152 E1.32123
G1 X72.344 Y154.993 E.02344
G1 X71.658 Y154.627 E.02437
G1 X70.939 Y153.819 E.03392
G1 X70.794 Y153.508 E.01077
G1 X70.591 Y152.707 E.02591
G1 X70.592 Y100.914 E1.62391
G1 X70.725 Y100.176 E.02352
G1 X71.061 Y99.504 E.02356
G1 X71.513 Y98.999 E.02124
G1 X71.663 Y98.9 E.00563
G1 X71.87 Y99.215 F9000
G1 F1200
G1 X72.25 Y98.965 E.01428
G1 X73.126 Y98.74 E.02833
G1 X115.232 Y98.744 E1.32021
G1 X115.591 Y98.827 E.01157
G1 X115.957 Y98.999 E.01268
G1 X116.562 Y99.557 E.0258
G1 X116.794 Y99.919 E.01347
G1 X116.96 Y100.482 E.01841
G1 X116.96 Y153.006 E1.64684
G1 X116.868 Y153.416 E.01318
G1 X116.581 Y153.938 E.0187
G1 X115.957 Y154.515 E.02663
G1 X115.589 Y154.689 E.01277
G1 X115.192 Y154.774 E.01273
G1 X73.094 Y154.775 E1.31996
G1 X72.493 Y154.646 E.01928
G1 X71.913 Y154.348 E.02043
G1 X71.267 Y153.632 E.03025
G1 X71.154 Y153.394 E.00826
G1 X70.968 Y152.682 E.02307
G1 X70.969 Y100.932 E1.62259
G1 X71.09 Y100.271 E.02107
G1 X71.361 Y99.734 E.01884
G1 X71.742 Y99.3 E.01813
G1 X71.82 Y99.248 E.00293
G1 X72.027 Y99.563 F9000
G1 F1200
G1 X72.431 Y99.297 E.01515
G1 X73.148 Y99.117 E.02319
G1 X115.21 Y99.121 E1.31882
G1 X115.448 Y99.176 E.00767
G1 X115.768 Y99.327 E.01109
G1 X116.287 Y99.815 E.02233
G1 X116.442 Y100.056 E.00898
G1 X116.583 Y100.512 E.01495
G1 X116.583 Y152.986 E1.6453
G1 X116.523 Y153.264 E.00892
G1 X116.298 Y153.687 E.01501
G1 X115.768 Y154.187 E.02284
G1 X115.448 Y154.338 E.01111
G1 X115.173 Y154.397 E.00882
G1 X73.115 Y154.398 E1.31868
G1 X72.6 Y154.284 E.01653
G1 X72.12 Y154.031 E.01703
G1 X71.594 Y153.443 E.02474
G1 X71.513 Y153.277 E.00581
G1 X71.345 Y152.656 E.02015
G1 X71.346 Y100.948 E1.62128
G1 X71.441 Y100.412 E.01705
G1 X71.663 Y99.96 E.0158
G1 X71.977 Y99.596 E.01506
G1 X72.204 Y99.898 F9000
G1 F1200
G1 X72.611 Y99.63 E.01525
G1 X73.17 Y99.494 E.01806
G1 X115.188 Y99.498 E1.31744
G1 X115.305 Y99.525 E.00377
G1 X115.578 Y99.654 E.00947
G1 X116.009 Y100.071 E.0188
G1 X116.093 Y100.199 E.00479
G1 X116.206 Y100.543 E.01136
G1 X116.206 Y152.967 E1.64372
G1 X116.174 Y153.118 E.00484
G1 X116.012 Y153.44 E.01131
G1 X115.578 Y153.86 E.0189
G1 X115.307 Y153.988 E.0094
G1 X115.154 Y154.02 E.00492
G1 X73.137 Y154.021 E1.31739
G1 X72.712 Y153.923 E.0137
G1 X72.33 Y153.716 E.01361
G1 X71.919 Y153.251 E.01948
G1 X71.87 Y153.154 E.00339
G1 X71.722 Y152.629 E.0171
G1 X71.723 Y100.965 E1.61989
G1 X71.807 Y100.507 E.01461
G1 X71.968 Y100.183 E.01134
G1 X72.166 Y99.944 E.00973
G1 X72.439 Y100.195 F9000
G1 F1200
G1 X72.789 Y99.964 E.01315
G1 X73.191 Y99.871 E.01292
G1 X115.136 Y99.871 E1.31517
G1 X115.386 Y99.981 E.00856
G1 X115.729 Y100.324 E.01522
G1 X115.829 Y100.578 E.00856
G1 X115.829 Y152.95 E1.64207
G1 X115.719 Y153.2 E.00856
G1 X115.386 Y153.533 E.01477
G1 X115.136 Y153.643 E.00856
G1 X73.158 Y153.644 E1.3162
G1 X72.868 Y153.579 E.00931
G1 X72.541 Y153.402 E.01167
G1 X72.24 Y153.053 E.01446
G1 X72.099 Y152.601 E.01483
G1 X72.1 Y100.984 E1.61843
G1 X72.172 Y100.605 E.01209
G1 X72.275 Y100.401 E.00715
G1 X72.402 Y100.242 E.00637
G1 X72.697 Y100.477 F9000
G1 F1200
G1 X72.912 Y100.322 E.00829
G1 X73.214 Y100.248 E.00976
G1 X115.08 Y100.248 E1.31267
G1 X115.149 Y100.277 E.00235
G1 X115.423 Y100.551 E.01215
G1 X115.452 Y100.62 E.00235
G1 X115.452 Y152.894 E1.639
G1 X115.423 Y152.963 E.00235
G1 X115.149 Y153.237 E.01215
G1 X115.08 Y153.266 E.00235
G1 X73.177 Y153.267 E1.31384
G1 X73.023 Y153.234 E.00493
G1 X72.755 Y153.089 E.00955
G1 X72.567 Y152.858 E.00933
G1 X72.476 Y152.57 E.00948
G1 X72.478 Y100.999 E1.61697
G1 X72.523 Y100.744 E.00812
G1 X72.584 Y100.619 E.00439
G1 X72.66 Y100.524 E.0038
G1 X72.955 Y100.758 F9000
G1 F1200
G1 X73.04 Y100.678 E.00365
G1 X73.24 Y100.625 E.00648
G1 X114.964 Y100.625 E1.30823
G1 X115.075 Y100.736 E.0049
G1 X115.075 Y152.778 E1.63175
G1 X114.964 Y152.889 E.0049
G1 X73.194 Y152.89 E1.30967
G1 X73.008 Y152.807 E.00639
G1 X72.908 Y152.694 E.00472
G1 X72.853 Y152.536 E.00526
G1 X72.855 Y101.013 E1.61545
G1 X72.878 Y100.873 E.00445
G1 X72.918 Y100.805 E.00249
G1 E-3.5 F3600
;WIPE_START
G1 F7200
G1 X73.04 Y100.678 E-.08367
G1 X73.24 Y100.625 E-.09819
G1 X75.857 Y100.625 E-1.24314
;WIPE_END
G1 E-.075 F3600
G1 X128.949 Y100.844 F9000
G1 E5 F2400
G1 F1200
G1 X129.477 Y98.932 E.0622
G1 X130.22 Y97.864 E.04078
G1 X131.184 Y97.043 E.03971
G1 X132.352 Y96.499 E.04039
G1 X133.595 Y96.27 E.03964
G1 X159.87 Y96.276 E.82384
G1 X161.532 Y96.701 E.05379
G1 X162.975 Y97.655 E.05422
G1 X163.456 Y98.217 E.02322
G1 X163.863 Y98.846 E.02345
G1 X164.423 Y100.833 E.06474
G1 X164.423 Y152.67 E1.62533
G1 X163.895 Y154.582 E.06219
G1 X163.152 Y155.65 E.04078
G1 X162.188 Y156.471 E.03971
G1 X161.02 Y157.015 E.04039
G1 X159.778 Y157.244 E.03962
G1 X133.518 Y157.244 E.82334
G1 X131.656 Y156.737 E.06053
G1 X130.559 Y155.988 E.04166
G1 X129.738 Y155.034 E.03945
G1 X129.19 Y153.878 E.04011
G1 X128.949 Y152.596 E.04089
G1 X128.949 Y100.904 E1.62078
G1 X129.326 Y100.904 F9000
G1 F1200
G1 X129.806 Y99.119 E.05795
G1 X130.485 Y98.134 E.03753
G1 X131.369 Y97.373 E.03657
G1 X132.446 Y96.865 E.03732
G1 X133.613 Y96.647 E.03723
G1 X159.846 Y96.653 E.82252
G1 X161.407 Y97.058 E.05056
G1 X162.705 Y97.92 E.04886
G1 X163.161 Y98.453 E.022
G1 X163.53 Y99.026 E.02136
G1 X164.046 Y100.859 E.0597
G1 X164.046 Y152.645 E1.62373
G1 X163.566 Y154.395 E.05689
G1 X162.887 Y155.38 E.03753
G1 X162.003 Y156.141 E.03657
G1 X160.927 Y156.649 E.03732
G1 X159.76 Y156.867 E.03721
G1 X133.544 Y156.867 E.82198
G1 X131.788 Y156.383 E.05713
G1 X130.795 Y155.693 E.03791
G1 X130.042 Y154.809 E.03639
G1 X129.541 Y153.74 E.03701
G1 X129.326 Y152.579 E.03703
G1 X129.326 Y100.964 E1.61836
G1 X129.703 Y100.964 F9000
G1 F1200
G1 X129.703 Y100.895 E.00216
G1 X130.16 Y99.252 E.05346
G1 X130.779 Y98.371 E.03378
G1 X131.594 Y97.676 E.03358
G1 X132.539 Y97.231 E.03276
G1 X133.631 Y97.024 E.03482
G1 X159.822 Y97.03 E.82123
G1 X161.227 Y97.39 E.04545
G1 X162.437 Y98.186 E.04542
G1 X162.852 Y98.668 E.01993
G1 X163.198 Y99.206 E.02006
G1 X163.669 Y100.884 E.05466
G1 X163.669 Y152.619 E1.62211
G1 X163.212 Y154.261 E.05346
G1 X162.593 Y155.143 E.03377
G1 X161.778 Y155.838 E.03358
G1 X160.833 Y156.283 E.03276
G1 X159.742 Y156.49 E.0348
G1 X133.569 Y156.49 E.82063
G1 X131.975 Y156.054 E.05183
G1 X131.064 Y155.428 E.03465
G1 X130.372 Y154.624 E.03326
G1 X129.907 Y153.646 E.03394
G1 X129.703 Y152.561 E.03461
G1 X129.703 Y101.024 E1.61592
G1 X130.08 Y101.024 F9000
G1 F1200
G1 X130.08 Y100.92 E.00325
G1 X130.488 Y99.441 E.04813
G1 X131.043 Y98.642 E.03049
G1 X131.819 Y97.98 E.03197
G1 X132.676 Y97.583 E.02962
G1 X133.648 Y97.401 E.031
G1 X159.798 Y97.408 E.81992
G1 X161.101 Y97.747 E.04222
G1 X162.168 Y98.452 E.04009
G1 X162.557 Y98.904 E.01869
G1 X162.865 Y99.385 E.01793
G1 X163.292 Y100.91 E.04964
G1 X163.292 Y152.594 E1.62051
G1 X162.883 Y154.073 E.04813
G1 X162.329 Y154.872 E.03049
G1 X161.553 Y155.534 E.03197
G1 X160.696 Y155.931 E.02962
G1 X159.725 Y156.113 E.03099
G1 X133.595 Y156.113 E.81928
G1 X132.108 Y155.699 E.0484
G1 X131.301 Y155.134 E.0309
G1 X130.676 Y154.399 E.03024
G1 X130.259 Y153.509 E.03083
G1 X130.08 Y152.544 E.03076
G1 X130.08 Y101.084 E1.6135
G1 X130.457 Y101.084 F9000
G1 F1200
G1 X130.457 Y100.947 E.00431
G1 X130.842 Y99.575 E.04466
G1 X131.335 Y98.88 E.02671
G1 X132.041 Y98.286 E.02894
G1 X132.81 Y97.936 E.0265
G1 X133.665 Y97.778 E.02724
G1 X159.774 Y97.785 E.81865
G1 X160.921 Y98.08 E.03714
G1 X161.901 Y98.719 E.03666
G1 X162.247 Y99.118 E.01657
G1 X162.532 Y99.565 E.01661
G1 X162.915 Y100.936 E.04463
G1 X162.915 Y152.568 E1.61888
G1 X162.53 Y153.939 E.04466
G1 X162.037 Y154.634 E.02671
G1 X161.331 Y155.228 E.02894
G1 X160.562 Y155.578 E.0265
G1 X159.708 Y155.736 E.02723
G1 X133.62 Y155.736 E.81796
G1 X132.296 Y155.371 E.04309
G1 X131.572 Y154.87 E.0276
G1 X130.979 Y154.174 E.02865
G1 X130.625 Y153.415 E.02626
G1 X130.457 Y152.526 E.02837
G1 X130.457 Y101.144 E1.61106
G1 X130.834 Y101.144 F9000
G1 F1200
G1 X130.834 Y100.972 E.00539
G1 X131.17 Y99.764 E.0393
G1 X131.599 Y99.151 E.02348
G1 X132.224 Y98.616 E.02577
G1 X132.904 Y98.302 E.02349
G1 X133.683 Y98.155 E.02484
G1 X159.751 Y98.162 E.81736
G1 X160.744 Y98.414 E.03212
G1 X161.634 Y98.987 E.03318
G1 X161.952 Y99.354 E.01525
G1 X162.199 Y99.743 E.01443
G1 X162.538 Y100.961 E.03965
G1 X162.538 Y152.542 E1.61728
G1 X162.202 Y153.75 E.0393
G1 X161.773 Y154.363 E.02348
G1 X161.148 Y154.898 E.02577
