; generated by PrusaSlicer 2.5.0+win64 on 2023-11-20 at 20:08:40 UTC

; 

; external perimeters extrusion width = 0.42mm
; perimeters extrusion width = 0.44mm
; infill extrusion width = 0.44mm
; solid infill extrusion width = 0.44mm
; top infill extrusion width = 0.40mm
; support material extrusion width = 0.36mm
; first layer extrusion width = 0.42mm

; external perimeters extrusion width = 0.42mm
; perimeters extrusion width = 0.44mm
; infill extrusion width = 0.44mm
; solid infill extrusion width = 0.44mm
; top infill extrusion width = 0.40mm
; support material extrusion width = 0.36mm
; first layer extrusion width = 0.42mm

M107
;TYPE:Custom
G90 ; use absolute coordinates
M83 ; extruder relative mode
M140 S60 ; set final bed temp
M104 S150 ; set temporary nozzle temp to prevent oozing during homing
G4 S10 ; allow partial nozzle warmup
G28 ; home all axis
G1 Z50 F240
G1 X2 Y10 F3000
M104 S215 ; set final nozzle temp
M190 S60 ; wait for bed temp to stabilize
M109 S215 ; wait for nozzle temp to stabilize
G1 Z0.28 F240
G92 E0
G1 Y140 E10 F1500 ; prime the nozzle
G1 X2.3 F5000
G92 E0
G1 Y10 E10 F1200 ; prime the nozzle
G92 E0
G21 ; set units to millimeters
G90 ; use absolute coordinates
M83 ; use relative distances for extrusion
; Filament gcode
M107
;LAYER_CHANGE
;Z:0.2
;HEIGHT:0.2
;BEFORE_LAYER_CHANGE
G92 E0
;0.2


G1 E-5 F3600
G1 Z.2 F9000
;AFTER_LAYER_CHANGE
;0.2
G1 X86.731 Y56.516
G1 E5 F2400
M204 S500
;TYPE:Skirt/Brim
;WIDTH:0.42
G1 F1200
G1 X87.14 Y56.03 E.01991
G1 X87.789 Y55.509 E.02611
G1 X88.728 Y55.081 E.03235
G1 X89.743 Y54.926 E.03221
G1 X141.25 Y54.925 E1.61495
G1 X142.102 Y55.035 E.02694
G1 X142.721 Y55.249 E.02054
G1 X143.252 Y55.538 E.01896
G1 X143.855 Y56.029 E.02439
G1 X144.249 Y56.494 E.01911
G1 X144.571 Y57.031 E.01962
G1 X144.774 Y57.54 E.01716
G1 X144.934 Y58.31 E.02467
G1 X148.093 Y94.339 E1.13401
G1 X148.172 Y101.627 E.22851
G1 X147.463 Y137.313 E1.11915
G1 X147.322 Y138.213 E.02854
G1 X144.903 Y146.312 E.26504
G1 X144.536 Y147.133 E.02818
G1 X143.905 Y147.932 E.03192
G1 X143.194 Y148.475 E.02806
G1 X142.062 Y148.919 E.03813
G1 X141.269 Y149.011 E.02503
G1 X89.75 Y149.01 E1.61534
G1 X89.051 Y148.944 E.022
G1 X88.113 Y148.635 E.03096
G1 X87.367 Y148.171 E.02755
G1 X86.916 Y147.749 E.01937
G1 X86.434 Y147.076 E.02596
G1 X86.109 Y146.35 E.02492
G1 X83.678 Y138.213 E.26629
G1 X83.537 Y137.313 E.02854
G1 X82.827 Y101.63 E1.11906
G1 X82.966 Y93.267 E.26223
G1 X86.06 Y58.32 E1.10005
G1 X86.187 Y57.656 E.02118
G1 X86.425 Y57.033 E.02093
G1 X86.701 Y56.568 E.01694
G1 E-3.5 F3600
;WIPE_START
G1 F7200
G1 X87.14 Y56.03 E-.32971
G1 X87.789 Y55.509 E-.39562
G1 X88.728 Y55.081 E-.49012
G1 X89.164 Y55.014 E-.20955
;WIPE_END
G1 E-.075 F3600
G1 X90.688 Y59.569 F9000
G1 E5 F2400
;TYPE:Perimeter
;WIDTH:0.419999
G1 F1200
G1 X109.592 Y59.569 E.59271
G1 X109.434 Y59.757 E.00771
G1 X109.434 Y73 E.41522
G1 X109.534 Y73.422 E.01361
G1 X109.756 Y73.709 E.01138
G1 X110.031 Y73.877 E.0101
G1 X110.376 Y73.942 E.01102
G1 X116.222 Y73.942 E.18327
;WIDTH:0.445358
G1 X116.861 Y73.955 E.02141
;WIDTH:0.495214
G1 X116.988 Y73.98 E.00484
;WIDTH:0.54507
G1 X117.114 Y74.005 E.00537
;WIDTH:0.594925
G1 X117.24 Y74.03 E.00591
G1 X117.648 Y74.017 E.01873
;WIDTH:0.568891
G1 X118.056 Y74.004 E.01784
;WIDTH:0.542857
G1 X123.704 Y74.004 E.23482
;WIDTH:0.555756
G1 X124.11 Y74.01 E.01731
G1 X124.247 Y73.987 E.00591
;WIDTH:0.509163
G1 X124.384 Y73.964 E.00538
;WIDTH:0.462569
G1 X125.024 Y73.942 E.02234
;WIDTH:0.419999
G1 X130.063 Y73.942 E.158
G1 X130.813 Y73.922 E.02353
G1 X131.124 Y73.796 E.01052
G1 X131.387 Y73.546 E.01139
G1 X131.515 Y73.293 E.00888
G1 X131.562 Y73 E.00933
G1 X131.562 Y59.757 E.41522
G1 X131.374 Y59.569 E.00835
G1 X140.308 Y59.569 E.28011
G1 X140.308 Y83.688 E.75624
G1 X90.688 Y83.688 E1.55578
G1 X90.688 Y59.629 E.75436
G1 X90.311 Y59.192 F9000
G1 F1200
G1 X109.245 Y59.192 E.59367
;WIDTH:0.42825
G1 X110.278 Y59.196 E.03308
G1 X109.811 Y59.757 E.0234
;WIDTH:0.419999
G1 X109.811 Y73 E.41522
G1 X109.898 Y73.302 E.00987
G1 X110.097 Y73.492 E.00862
G1 X110.376 Y73.565 E.00905
G1 X130.735 Y73.553 E.63834
G1 X130.974 Y73.441 E.00826
G1 X131.123 Y73.256 E.00745
G1 X131.185 Y73 E.00827
G1 X131.185 Y59.757 E.41522
G1 X130.619 Y59.191 E.02508
G1 X140.685 Y59.192 E.31559
G1 X140.685 Y84.065 E.77989
G1 X90.311 Y84.065 E1.57942
G1 X90.311 Y59.252 E.77801
G1 X89.934 Y58.822 F9000
;TYPE:External perimeter
G1 F1200
G1 X141.062 Y58.814 E1.60307
G1 X141.059 Y84.442 E.80354
G1 X89.934 Y84.438 E1.60297
G1 X89.934 Y58.882 E.8013
G1 X90.329 Y58.884 F9000
G1 E-3.5 F3600
;WIPE_START
G1 F7200
G1 X92.934 Y58.878 E-1.425
;WIPE_END
G1 E-.075 F3600
G1 X110.188 Y59.757 F9000
G1 E5 F2400
G1 F1200
G1 X110.376 Y59.568 E.00836
G1 X130.619 Y59.568 E.6347
G1 X130.808 Y59.757 E.00836
G1 X130.808 Y73 E.41522
G1 X130.737 Y73.147 E.00511
G1 X130.622 Y73.188 E.00383
G1 X110.376 Y73.188 E.6348
G1 X110.228 Y73.117 E.00515
G1 X110.188 Y73 E.00388
G1 X110.188 Y59.817 E.41334
G1 X110.054 Y59.526 F9000
G1 E-3.5 F3600
;WIPE_START
G1 F7200
G1 X110.376 Y59.568 E-.14818
G1 X113.064 Y59.568 E-1.27682
;WIPE_END
G1 E-.075 F3600
G1 X115.637 Y75.694 F9000
G1 E5 F2400
;TYPE:Perimeter
G1 F1200
G1 X115.744 Y75.571 E.0051
G1 X116.227 Y75.152 E.02006
;WIDTH:0.445358
G1 X117.03 Y74.73 E.03035
;WIDTH:0.495214
G1 X117.113 Y74.68 E.00366
;WIDTH:0.54507
G1 X117.196 Y74.629 E.00406
;WIDTH:0.594925
G1 X117.28 Y74.579 E.00446
G1 X117.912 Y74.511 E.02919
;WIDTH:0.549316
G1 X118.056 Y74.504 E.00606
;WIDTH:0.542857
G1 X123.704 Y74.504 E.23482
;WIDTH:0.555756
G1 X124.092 Y74.523 E.01655
G1 X124.361 Y74.617 E.01216
;WIDTH:0.510504
G1 X124.63 Y74.712 E.01109
;WIDTH:0.465252
G1 X124.899 Y74.806 E.01002
;WIDTH:0.419999
G1 X125.144 Y74.918 E.00841
G1 X125.682 Y75.264 E.02006
G1 X125.885 Y75.439 E.00841
G1 X126.304 Y75.923 E.02006
G1 X126.449 Y76.149 E.00841
G1 X126.714 Y76.731 E.02006
G1 X126.79 Y76.988 E.0084
G1 X126.89 Y77.751 E.02415
G1 X126.89 Y79.26 E.0473
G1 X126.83 Y79.841 E.01832
G1 X126.649 Y80.455 E.02006
G1 X126.538 Y80.699 E.00841
G1 X126.192 Y81.237 E.02006
G1 X126.016 Y81.44 E.00841
G1 X125.533 Y81.859 E.02006
G1 X125.307 Y82.004 E.00841
G1 X124.725 Y82.27 E.02006
G1 X124.468 Y82.346 E.0084
G1 X123.704 Y82.446 E.02415
G1 X118.056 Y82.446 E.17711
G1 X117.474 Y82.385 E.01832
G1 X116.861 Y82.205 E.02006
G1 X116.616 Y82.093 E.00841
G1 X116.078 Y81.748 E.02006
G1 X115.875 Y81.572 E.00841
G1 X115.456 Y81.088 E.02006
G1 X115.311 Y80.863 E.00841
G1 X115.046 Y80.281 E.02006
G1 X114.957 Y79.932 E.01128
G1 X114.879 Y79.395 E.01703
G1 X114.87 Y77.751 E.05153
G1 X114.918 Y77.217 E.01682
G1 X115.111 Y76.556 E.02159
G1 X115.222 Y76.312 E.00841
G1 X115.598 Y75.739 E.02148
G1 X115.949 Y75.919 F9000
G1 F1200
G1 X116.474 Y75.437 E.02235
G1 X117.192 Y75.084 E.02507
G1 X117.975 Y74.948 E.02492
G1 X123.704 Y74.942 E.17964
G1 X124.179 Y74.988 E.01496
G1 X124.793 Y75.168 E.02006
G1 X125.478 Y75.581 E.02507
G1 X126.019 Y76.17 E.02507
G1 X126.371 Y76.887 E.02507
G1 X126.513 Y77.751 E.02745
G1 X126.513 Y79.26 E.0473
G1 X126.468 Y79.735 E.01496
G1 X126.287 Y80.349 E.02006
G1 X125.875 Y81.033 E.02507
G1 X125.286 Y81.574 E.02507
G1 X124.568 Y81.927 E.02507
G1 X123.785 Y82.063 E.02492
G1 X118.056 Y82.069 E.17964
G1 X117.581 Y82.023 E.01496
G1 X116.967 Y81.843 E.02006
G1 X116.282 Y81.43 E.02507
G1 X115.741 Y80.841 E.02507
G1 X115.389 Y80.124 E.02507
G1 X115.253 Y79.341 E.02492
G1 X115.247 Y77.751 E.04984
G1 X115.292 Y77.276 E.01496
G1 X115.473 Y76.662 E.02006
G1 X115.905 Y75.96 E.02587
G1 X116.203 Y76.182 F9000
;TYPE:External perimeter
G1 F1200
G1 X116.721 Y75.722 E.02173
G1 X117.348 Y75.427 E.02173
G1 X118.029 Y75.321 E.02159
G1 X123.704 Y75.319 E.17795
G1 X124.073 Y75.35 E.0116
G1 X124.687 Y75.53 E.02006
G1 X125.274 Y75.898 E.02173
G1 X125.734 Y76.417 E.02173
G1 X126.028 Y77.044 E.02173
G1 X126.136 Y77.751 E.02243
G1 X126.136 Y79.26 E.0473
G1 X126.106 Y79.629 E.0116
G1 X125.926 Y80.243 E.02006
G1 X125.557 Y80.83 E.02173
G1 X125.039 Y81.289 E.02173
G1 X124.412 Y81.584 E.02173
G1 X123.731 Y81.69 E.02159
G1 X118.056 Y81.692 E.17796
G1 X117.687 Y81.662 E.0116
G1 X117.073 Y81.481 E.02006
G1 X116.486 Y81.113 E.02173
G1 X116.026 Y80.594 E.02173
G1 X115.732 Y79.967 E.02173
G1 X115.626 Y79.287 E.02159
G1 X115.624 Y77.751 E.04815
G1 X115.654 Y77.383 E.0116
G1 X115.834 Y76.769 E.02006
G1 X116.171 Y76.232 E.01985
G1 X116.069 Y75.805 F9000
G1 E-3.5 F3600
;WIPE_START
G1 F7200
G1 X116.721 Y75.722 E-.3566
G1 X117.348 Y75.427 E-.32917
G1 X118.029 Y75.321 E-.32706
G1 X118.896 Y75.321 E-.41217
;WIPE_END
G1 E-.075 F3600
G1 X113.986 Y80.028 F9000
G1 E5 F2400
;TYPE:Perimeter
G1 F1200
G1 X114.029 Y80.18 E.00494
G1 X114.024 Y81.541 E.04267
G1 X113.921 Y81.883 E.0112
G1 X113.609 Y82.23 E.01464
G1 X113.249 Y82.373 E.01214
G1 X111.914 Y82.387 E.04189
G1 X111.47 Y82.277 E.01434
G1 X111.159 Y82.01 E.01282
G1 X111.009 Y81.709 E.01057
G1 X110.971 Y81.445 E.00836
G1 X110.971 Y80.202 E.03897
G1 X111.057 Y79.807 E.01266
G1 X111.24 Y79.542 E.0101
G1 X111.529 Y79.341 E.01102
G1 X111.914 Y79.259 E.01234
G1 X113.086 Y79.259 E.03678
G1 X113.503 Y79.356 E.01341
G1 X113.828 Y79.62 E.01313
G1 X113.904 Y79.732 E.00423
G1 X113.97 Y79.97 E.00776
G1 X113.63 Y80.118 F9000
G1 F1200
G1 X113.652 Y80.202 E.00272
G1 X113.652 Y81.445 E.03897
G1 X113.587 Y81.708 E.00848
G1 X113.4 Y81.916 E.00878
G1 X113.184 Y82.002 E.00728
G1 X113.086 Y82.01 E.00308
G1 X111.914 Y82.01 E.03678
G1 X111.647 Y81.944 E.0086
G1 X111.461 Y81.784 E.00769
G1 X111.371 Y81.603 E.00634
G1 X111.348 Y81.445 E.00502
G1 X111.348 Y80.202 E.03897
G1 X111.423 Y79.92 E.00915
G1 X111.583 Y79.743 E.00749
G1 X111.816 Y79.645 E.00791
G1 X113.086 Y79.636 E.03984
G1 X113.336 Y79.694 E.00804
G1 X113.577 Y79.92 E.01033
G1 X113.614 Y80.06 E.00456
G1 X113.275 Y80.202 F9000
;TYPE:External perimeter
G1 F1200
G1 X113.275 Y81.445 E.03897
G1 X113.191 Y81.602 E.00558
G1 X113.086 Y81.633 E.00342
G1 X111.914 Y81.633 E.03678
G1 X111.763 Y81.558 E.00529
G1 X111.725 Y81.445 E.00374
G1 X111.725 Y80.202 E.03897
G1 X111.779 Y80.07 E.00447
G1 X111.914 Y80.013 E.00458
G1 X113.086 Y80.013 E.03678
G1 X113.235 Y80.085 E.00517
G1 X113.255 Y80.145 E.00198
G1 X113.661 Y80.305 F9000
G1 E-3.5 F3600
;WIPE_START
G1 F7200
G1 X113.275 Y81.445 E-.61739
G1 X113.191 Y81.602 E-.08458
G1 X113.086 Y81.633 E-.05184
G1 X111.914 Y81.633 E-.55714
G1 X111.763 Y81.558 E-.0801
G1 X111.74 Y81.49 E-.03395
;WIPE_END
G1 E-.075 F3600
G1 X110.278 Y59.196 F9000
G1 E5 F2400
;TYPE:Perimeter
;WIDTH:0.42825
G1 F1200
G1 X110.376 Y59.191 E.00316
;WIDTH:0.419682
G1 X130.619 Y59.191 E.63417
G1 E-3.5 F3600
;WIPE_START
G1 F7200
G1 X127.619 Y59.191 E-1.425
;WIPE_END
G1 E-.075 F3600
G1 X140.187 Y60.455 F9000
G1 E5 F2400
;TYPE:Solid infill
;WIDTH:0.42141
G1 F1200
G1 X139.591 Y59.859 E.02651
G1 X139.056 Y59.859 E.01685
G1 X140.017 Y60.82 E.04278
G1 X140.017 Y61.355 E.01685
G1 X138.521 Y59.859 E.0666
G1 X137.985 Y59.859 E.01685
G1 X140.017 Y61.891 E.09043
G1 X140.017 Y62.426 E.01685
G1 X137.45 Y59.859 E.11425
G1 X136.915 Y59.859 E.01685
G1 X140.017 Y62.961 E.13807
G1 X140.017 Y63.496 E.01685
G1 X136.38 Y59.859 E.1619
G1 X135.844 Y59.859 E.01685
G1 X140.017 Y64.032 E.18572
G1 X140.017 Y64.567 E.01685
G1 X135.309 Y59.859 E.20954
G1 X134.774 Y59.859 E.01685
G1 X140.017 Y65.102 E.23337
G1 X140.017 Y65.638 E.01685
G1 X134.239 Y59.859 E.25719
G1 X133.703 Y59.859 E.01685
G1 X140.017 Y66.173 E.28101
G1 X140.017 Y66.708 E.01685
G1 X133.168 Y59.859 E.30484
G1 X132.633 Y59.859 E.01685
G1 X140.017 Y67.243 E.32866
G1 X140.017 Y67.779 E.01685
G1 X132.098 Y59.859 E.35248
G1 X131.852 Y59.859 E.00772
G1 X131.852 Y60.149 E.00913
G1 X140.017 Y68.314 E.3634
G1 X140.017 Y68.849 E.01685
G1 X131.852 Y60.684 E.3634
G1 X131.852 Y61.22 E.01685
G1 X140.017 Y69.384 E.3634
G1 X140.017 Y69.92 E.01685
G1 X131.852 Y61.755 E.3634
G1 X131.852 Y62.29 E.01685
G1 X140.017 Y70.455 E.3634
G1 X140.017 Y70.99 E.01685
G1 X131.852 Y62.825 E.3634
G1 X131.852 Y63.361 E.01685
G1 X140.017 Y71.525 E.3634
G1 X140.017 Y72.061 E.01685
G1 X131.852 Y63.896 E.3634
G1 X131.852 Y64.431 E.01685
G1 X140.017 Y72.596 E.3634
G1 X140.017 Y73.131 E.01685
G1 X131.852 Y64.966 E.3634
G1 X131.852 Y65.502 E.01685
G1 X140.017 Y73.667 E.3634
G1 X140.017 Y74.202 E.01685
G1 X131.852 Y66.037 E.3634
G1 X131.852 Y66.572 E.01685
G1 X140.017 Y74.737 E.3634
G1 X140.017 Y75.272 E.01685
G1 X131.852 Y67.107 E.3634
G1 X131.852 Y67.643 E.01685
G1 X140.017 Y75.808 E.3634
G1 X140.017 Y76.343 E.01685
G1 X131.852 Y68.178 E.3634
G1 X131.852 Y68.713 E.01685
G1 X140.017 Y76.878 E.3634
G1 X140.017 Y77.413 E.01685
G1 X131.852 Y69.249 E.3634
G1 X131.852 Y69.784 E.01685
G1 X140.017 Y77.949 E.3634
G1 X140.017 Y78.484 E.01685
G1 X131.852 Y70.319 E.3634
G1 X131.852 Y70.854 E.01685
G1 X140.017 Y79.019 E.3634
G1 X140.017 Y79.554 E.01685
G1 X131.852 Y71.39 E.3634
G1 X131.852 Y71.925 E.01685
G1 X140.017 Y80.09 E.3634
G1 X140.017 Y80.625 E.01685
G1 X131.852 Y72.46 E.3634
G1 X131.852 Y72.995 E.01685
G1 X140.017 Y81.16 E.3634
G1 X140.017 Y81.696 E.01685
G1 X131.766 Y73.444 E.36723
G1 X131.719 Y73.559 E.00389
G1 X131.565 Y73.779 E.00845
G1 X140.017 Y82.231 E.37619
G1 X140.017 Y82.766 E.01685
G1 X131.282 Y74.031 E.38878
G1 X131.154 Y74.112 E.00478
G1 X130.91 Y74.194 E.00808
G1 X140.017 Y83.301 E.40532
G1 X140.017 Y83.398 E.00303
G1 X139.578 Y83.398 E.01381
G1 X130.413 Y74.233 E.4079
G1 X129.878 Y74.233 E.01685
G1 X139.043 Y83.398 E.4079
G1 X138.508 Y83.398 E.01685
G1 X129.343 Y74.233 E.4079
G1 X128.808 Y74.233 E.01685
G1 X137.972 Y83.398 E.4079
G1 X137.437 Y83.398 E.01685
G1 X128.272 Y74.233 E.4079
G1 X127.737 Y74.233 E.01685
G1 X136.902 Y83.398 E.4079
G1 X136.367 Y83.398 E.01685
G1 X127.202 Y74.233 E.4079
G1 X126.667 Y74.233 E.01685
G1 X135.831 Y83.398 E.4079
G1 X135.296 Y83.398 E.01685
G1 X126.131 Y74.233 E.4079
G1 X125.596 Y74.233 E.01685
G1 X134.761 Y83.398 E.4079
G1 X134.226 Y83.398 E.01685
G1 X124.899 Y74.071 E.4151
G1 X125.026 Y74.734 F9000
G1 F1200
G1 X124.397 Y74.105 E.028
G1 E-3.5 F3600
;WIPE_START
G1 F7200
G1 X125.026 Y74.734 E-.42262
;WIPE_END
G1 E-1.07738 F3600
G1 X126.699 Y76.406 F9000
G1 E5 F2400
G1 F1200
G1 X133.69 Y83.398 E.31118
G1 X133.155 Y83.398 E.01685
G1 X127.14 Y77.383 E.2677
G1 X127.169 Y77.582 E.00633
G1 X127.172 Y77.949 E.01156
G1 X132.62 Y83.398 E.24249
G1 X132.085 Y83.398 E.01685
G1 X127.175 Y78.488 E.2185
G1 X127.179 Y79.027 E.01696
G1 X131.549 Y83.398 E.19451
G1 X131.014 Y83.398 E.01685
G1 X127.162 Y79.546 E.17142
G1 X127.155 Y79.669 E.00386
G1 X127.085 Y80.003 E.01077
G1 X130.479 Y83.398 E.15107
G1 X129.944 Y83.398 E.01685
G1 X126.963 Y80.417 E.13265
G1 X126.926 Y80.544 E.00415
G1 X126.809 Y80.799 E.00882
G1 X129.408 Y83.398 E.11567
G1 X128.873 Y83.398 E.01685
G1 X126.606 Y81.13 E.10091
G1 X126.39 Y81.45 E.01213
G1 X128.338 Y83.398 E.0867
G1 X127.802 Y83.398 E.01685
G1 X126.13 Y81.725 E.07443
G1 X125.843 Y81.974 E.01194
G1 X127.267 Y83.398 E.06337
G1 X126.732 Y83.398 E.01685
G1 X125.535 Y82.201 E.05328
G1 X125.18 Y82.381 E.01252
G1 X126.197 Y83.398 E.04524
G1 X125.661 Y83.398 E.01685
G1 X124.81 Y82.546 E.0379
G1 X124.551 Y82.627 E.00854
G1 X124.378 Y82.649 E.00549
G1 X125.126 Y83.398 E.03332
G1 X124.591 Y83.398 E.01685
G1 X123.904 Y82.711 E.03056
G1 X123.711 Y82.736 E.00613
G1 X123.394 Y82.736 E.00997
G1 X124.056 Y83.398 E.02944
G1 X123.52 Y83.398 E.01685
G1 X122.859 Y82.736 E.02944
G1 X122.324 Y82.736 E.01685
G1 X122.985 Y83.398 E.02944
G1 X122.45 Y83.398 E.01685
G1 X121.788 Y82.736 E.02944
G1 X121.253 Y82.736 E.01685
G1 X121.915 Y83.398 E.02944
G1 X121.379 Y83.398 E.01685
G1 X120.718 Y82.736 E.02944
G1 X120.183 Y82.736 E.01685
G1 X120.844 Y83.398 E.02944
G1 X120.309 Y83.398 E.01685
G1 X119.647 Y82.736 E.02944
G1 X119.112 Y82.736 E.01685
G1 X119.773 Y83.398 E.02944
G1 X119.238 Y83.398 E.01685
G1 X118.577 Y82.736 E.02944
G1 X118.041 Y82.736 E.01687
G1 X118.703 Y83.398 E.02947
G1 X118.168 Y83.398 E.01685
G1 X117.2 Y82.43 E.04305
G1 E-3.5 F3600
;WIPE_START
G1 F7200
G1 X118.168 Y83.398 E-.64974
G1 X118.703 Y83.398 E-.25425
G1 X118.041 Y82.736 E-.44481
G1 X118.201 Y82.736 E-.0762
;WIPE_END
G1 E-.075 F3600
G1 X116.906 Y74.643 F9000
G1 E5 F2400
G1 F1200
G1 X116.508 Y74.244 E.01774
G1 X115.961 Y74.233 E.01721
