; generated by PrusaSlicer 2.5.0+win64 on 2023-11-20 at 14:57:15 UTC

; 

; external perimeters extrusion width = 0.42mm
; perimeters extrusion width = 0.44mm
; infill extrusion width = 0.44mm
; solid infill extrusion width = 0.44mm
; top infill extrusion width = 0.40mm
; support material extrusion width = 0.36mm
; first layer extrusion width = 0.42mm

; external perimeters extrusion width = 0.42mm
; perimeters extrusion width = 0.44mm
; infill extrusion width = 0.44mm
; solid infill extrusion width = 0.44mm
; top infill extrusion width = 0.40mm
; support material extrusion width = 0.36mm
; first layer extrusion width = 0.42mm

M107
;TYPE:Custom
G90 ; use absolute coordinates
M83 ; extruder relative mode
M140 S60 ; set final bed temp
M104 S150 ; set temporary nozzle temp to prevent oozing during homing
G4 S10 ; allow partial nozzle warmup
G28 ; home all axis
G1 Z50 F240
G1 X2 Y10 F3000
M104 S215 ; set final nozzle temp
M190 S60 ; wait for bed temp to stabilize
M109 S215 ; wait for nozzle temp to stabilize
G1 Z0.28 F240
G92 E0
G1 Y140 E10 F1500 ; prime the nozzle
G1 X2.3 F5000
G92 E0
G1 Y10 E10 F1200 ; prime the nozzle
G92 E0
G21 ; set units to millimeters
G90 ; use absolute coordinates
M83 ; use relative distances for extrusion
; Filament gcode
M107
;LAYER_CHANGE
;Z:0.2
;HEIGHT:0.2
;BEFORE_LAYER_CHANGE
G92 E0
;0.2


G1 E-5 F3600
G1 Z.2 F9000
;AFTER_LAYER_CHANGE
;0.2
G1 X110.201 Y41.965
G1 E5 F2400
M204 S500
;TYPE:Skirt/Brim
;WIDTH:0.42
G1 F1200
G1 X110.75 Y40.901 E.03756
G1 X112.313 Y39.452 E.06681
G1 X113.253 Y39.051 E.03204
G1 X114.226 Y38.87 E.03102
G1 X156.605 Y38.873 E1.32877
G1 X157.539 Y39.024 E.02967
G1 X158.444 Y39.349 E.03016
G1 X159.733 Y40.255 E.0494
G1 X160.77 Y41.735 E.05666
G1 X161.222 Y43.469 E.05619
G1 X161.221 Y95.464 E1.63026
G1 X160.947 Y96.897 E.04575
G1 X160.295 Y98.15 E.04426
G1 X159.55 Y98.971 E.03478
G1 X158.649 Y99.602 E.03448
G1 X158.004 Y99.867 E.02188
G1 X156.595 Y100.183 E.04529
G1 X114.155 Y100.183 E1.33068
G1 X112.925 Y99.883 E.0397
G1 X112.033 Y99.421 E.03148
G1 X110.667 Y98.035 E.06101
G1 X110.249 Y97.203 E.02921
G1 X109.951 Y95.98 E.03948
G1 X109.951 Y43.132 E1.657
G1 X110.189 Y42.024 E.03553
G1 X110.557 Y42.104 F9000
G1 F1200
G1 X111.069 Y41.104 E.03524
G1 X112.492 Y39.785 E.06084
G1 X113.344 Y39.417 E.02909
G1 X114.243 Y39.247 E.02871
G1 X156.589 Y39.25 E1.32772
G1 X157.46 Y39.393 E.02766
G1 X158.29 Y39.695 E.02772
G1 X159.488 Y40.544 E.04603
G1 X160.414 Y41.864 E.05056
G1 X160.845 Y43.494 E.05286
G1 X160.844 Y95.447 E1.62894
G1 X160.599 Y96.75 E.04156
G1 X159.999 Y97.916 E.04113
G1 X159.315 Y98.676 E.03205
G1 X158.484 Y99.262 E.03187
G1 X157.904 Y99.504 E.01971
G1 X156.573 Y99.806 E.04279
G1 X114.178 Y99.806 E1.32927
G1 X113.038 Y99.523 E.03682
G1 X112.235 Y99.101 E.02846
G1 X110.99 Y97.838 E.0556
G1 X110.61 Y97.09 E.02631
G1 X110.328 Y95.956 E.03664
G1 X110.328 Y43.153 E1.65562
G1 X110.544 Y42.163 E.03176
G1 X110.906 Y42.241 F9000
G1 F1200
G1 X111.388 Y41.308 E.03295
G1 X112.673 Y40.118 E.0549
G1 X113.436 Y39.783 E.02613
G1 X114.262 Y39.625 E.02635
G1 X156.573 Y39.627 E1.32665
G1 X157.38 Y39.762 E.02564
G1 X158.137 Y40.04 E.02531
G1 X159.2 Y40.789 E.04077
G1 X160.059 Y41.995 E.04642
G1 X160.468 Y43.519 E.04947
G1 X160.466 Y95.43 E1.62762
G1 X160.25 Y96.604 E.03742
G1 X159.7 Y97.684 E.038
G1 X159.078 Y98.381 E.02931
G1 X158.318 Y98.923 E.02926
G1 X157.803 Y99.14 E.01754
G1 X156.551 Y99.429 E.04026
G1 X114.202 Y99.429 E1.32784
G1 X113.154 Y99.163 E.03389
G1 X112.438 Y98.782 E.02545
G1 X111.311 Y97.64 E.05029
G1 X110.969 Y96.976 E.02342
G1 X110.705 Y95.932 E.03376
G1 X110.705 Y43.173 E1.65424
G1 X110.893 Y42.3 E.02799
G1 X111.261 Y42.381 F9000
G1 F1200
G1 X111.272 Y42.33 E.00163
G1 X111.706 Y41.513 E.02902
G1 X112.855 Y40.449 E.04908
G1 X113.531 Y40.149 E.02319
G1 X114.28 Y40.002 E.02395
G1 X156.558 Y40.004 E1.32557
G1 X157.266 Y40.122 E.02252
G1 X157.983 Y40.385 E.02395
G1 X158.955 Y41.077 E.03739
G1 X159.731 Y42.184 E.04238
G1 X160.091 Y43.543 E.0441
G1 X160.089 Y95.412 E1.62631
G1 X159.884 Y96.507 E.03493
G1 X159.402 Y97.452 E.03327
G1 X158.84 Y98.088 E.02661
G1 X158.15 Y98.585 E.02665
G1 X157.7 Y98.777 E.01535
G1 X156.529 Y99.052 E.0377
G1 X114.226 Y99.052 E1.32638
G1 X113.272 Y98.805 E.03092
G1 X112.642 Y98.464 E.02245
G1 X111.632 Y97.44 E.0451
G1 X111.329 Y96.859 E.02054
G1 X111.082 Y95.908 E.03082
G1 X111.082 Y43.193 E1.65282
G1 X111.248 Y42.44 E.0242
G1 X111.615 Y42.523 F9000
G1 F1200
G1 X111.634 Y42.44 E.00267
G1 X112.023 Y41.72 E.02565
G1 X113.036 Y40.781 E.04331
G1 X113.664 Y40.502 E.02154
G1 X114.298 Y40.379 E.02026
G1 X156.541 Y40.381 E1.3245
G1 X157.185 Y40.49 E.02046
G1 X157.827 Y40.73 E.02149
G1 X158.707 Y41.363 E.034
G1 X159.401 Y42.369 E.03833
G1 X159.714 Y43.567 E.03881
G1 X159.712 Y95.395 E1.62504
G1 X159.535 Y96.363 E.03083
G1 X159.103 Y97.221 E.03013
G1 X158.572 Y97.822 E.02514
G1 X157.949 Y98.265 E.02398
G1 X157.597 Y98.414 E.01199
G1 X156.507 Y98.675 E.03514
G1 X114.251 Y98.675 E1.32488
G1 X113.392 Y98.447 E.02788
G1 X112.848 Y98.147 E.01946
G1 X111.952 Y97.238 E.04003
G1 X111.687 Y96.74 E.01768
G1 X111.459 Y95.883 E.02783
G1 X111.459 Y43.215 E1.65136
G1 X111.602 Y42.581 E.02037
G1 X111.969 Y42.666 F9000
G1 F1200
G1 X111.995 Y42.551 E.00369
G1 X112.338 Y41.929 E.02229
G1 X113.22 Y41.112 E.03769
G1 X113.76 Y40.867 E.0186
G1 X114.317 Y40.756 E.01781
G1 X156.525 Y40.758 E1.32338
G1 X157.102 Y40.859 E.01836
G1 X157.669 Y41.073 E.01902
G1 X158.458 Y41.647 E.03059
G1 X159.07 Y42.553 E.03427
G1 X159.337 Y43.59 E.03359
G1 X159.335 Y95.379 E1.6238
G1 X159.185 Y96.22 E.02678
G1 X158.802 Y96.992 E.02702
G1 X158.333 Y97.529 E.02235
G1 X157.78 Y97.927 E.02138
G1 X157.491 Y98.052 E.00987
G1 X156.484 Y98.298 E.03251
G1 X114.277 Y98.298 E1.32335
G1 X113.515 Y98.089 E.02477
G1 X113.057 Y97.832 E.01649
G1 X112.27 Y97.035 E.03512
G1 X112.045 Y96.619 E.01484
G1 X111.836 Y95.857 E.02477
G1 X111.836 Y43.237 E1.64985
G1 X111.955 Y42.725 E.01649
G1 X112.316 Y42.807 F9000
G1 F1200
G1 X112.338 Y42.71 E.00313
G1 X112.654 Y42.137 E.02051
G1 X113.405 Y41.441 E.03212
G1 X113.859 Y41.232 E.01567
G1 X114.337 Y41.133 E.01531
G1 X156.508 Y41.135 E1.32222
G1 X157.017 Y41.226 E.01622
G1 X157.509 Y41.415 E.01655
G1 X158.206 Y41.93 E.02715
G1 X158.738 Y42.733 E.0302
G1 X158.96 Y43.613 E.02846
G1 X158.958 Y95.362 E1.62254
G1 X158.819 Y96.126 E.02435
G1 X158.501 Y96.764 E.02236
G1 X158.093 Y97.238 E.01961
G1 X157.609 Y97.591 E.01879
G1 X157.383 Y97.69 E.00774
G1 X156.46 Y97.921 E.02983
G1 X114.304 Y97.921 E1.32176
G1 X113.642 Y97.734 E.02158
G1 X113.267 Y97.518 E.01354
G1 X112.587 Y96.829 E.03038
G1 X112.401 Y96.493 E.01202
G1 X112.213 Y95.83 E.02162
G1 X112.213 Y43.258 E1.64836
G1 X112.303 Y42.866 E.01261
G1 X112.664 Y42.946 F9000
G1 F1200
G1 X112.682 Y42.868 E.00252
G1 X112.969 Y42.345 E.0187
G1 X113.593 Y41.769 E.02663
G1 X113.961 Y41.595 E.01277
G1 X114.358 Y41.51 E.01273
G1 X156.49 Y41.512 E1.32101
G1 X156.929 Y41.594 E.01402
G1 X157.347 Y41.757 E.01406
G1 X157.951 Y42.21 E.02369
G1 X158.403 Y42.91 E.02611
G1 X158.582 Y43.636 E.02344
G1 X158.581 Y95.346 E1.62134
G1 X158.468 Y95.985 E.02036
G1 X158.198 Y96.539 E.01933
G1 X157.85 Y96.948 E.01683
G1 X157.434 Y97.256 E.01623
G1 X157.272 Y97.329 E.00558
G1 X156.436 Y97.544 E.02707
G1 X114.332 Y97.544 E1.32012
G1 X113.77 Y97.378 E.01838
G1 X113.515 Y97.233 E.00919
G1 X112.901 Y96.619 E.02726
G1 X112.756 Y96.364 E.00919
G1 X112.59 Y95.802 E.01838
G1 X112.59 Y43.278 E1.64684
G1 X112.651 Y43.005 E.00877
G1 X113.014 Y43.084 F9000
G1 F1200
G1 X113.028 Y43.02 E.00205
G1 X113.252 Y42.597 E.01501
G1 X113.782 Y42.097 E.02284
G1 X114.102 Y41.946 E.01111
G1 X114.378 Y41.887 E.00882
G1 X156.471 Y41.889 E1.31981
G1 X156.84 Y41.96 E.01176
G1 X157.183 Y42.097 E.01158
G1 X157.694 Y42.488 E.02019
G1 X158.067 Y43.082 E.02201
G1 X158.205 Y43.657 E.01854
G1 X158.204 Y95.331 E1.62018
G1 X158.116 Y95.848 E.01645
G1 X157.892 Y96.317 E.0163
G1 X157.606 Y96.661 E.01404
G1 X157.255 Y96.924 E.01375
G1 X157.157 Y96.97 E.00338
G1 X156.411 Y97.167 E.02421
G1 X114.362 Y97.167 E1.31841
G1 X113.905 Y97.026 E.015
G1 X113.729 Y96.922 E.00641
G1 X113.212 Y96.406 E.02289
G1 X113.108 Y96.229 E.00641
G1 X112.967 Y95.772 E.015
G1 X112.967 Y43.298 E1.6453
G1 X113.001 Y43.142 E.00498
G1 X113.365 Y43.219 F9000
G1 F1200
G1 X113.539 Y42.843 E.01296
G1 X113.972 Y42.424 E.0189
G1 X114.243 Y42.296 E.0094
G1 X114.397 Y42.264 E.00492
G1 X156.453 Y42.266 E1.31865
G1 X156.717 Y42.317 E.00841
G1 X157.017 Y42.437 E.01015
G1 X157.433 Y42.762 E.01655
G1 X157.728 Y43.25 E.01789
G1 X157.828 Y43.678 E.01379
G1 X157.827 Y95.316 E1.61907
G1 X157.763 Y95.714 E.01264
G1 X157.584 Y96.099 E.01328
G1 X157.358 Y96.375 E.01121
G1 X157.037 Y96.612 E.0125
G1 X156.385 Y96.79 E.0212
G1 X114.393 Y96.79 E1.31661
G1 X114.047 Y96.676 E.01144
G1 X113.947 Y96.614 E.00369
G1 X113.52 Y96.187 E.01893
G1 X113.458 Y96.087 E.00369
G1 X113.344 Y95.741 E.01144
G1 X113.353 Y43.277 E1.64495
G1 X113.721 Y43.334 F9000
G1 F1200
G1 X113.831 Y43.084 E.00856
G1 X114.164 Y42.751 E.01477
G1 X114.414 Y42.641 E.00856
G1 X156.433 Y42.643 E1.31746
G1 X156.622 Y42.682 E.00605
G1 X156.848 Y42.775 E.00765
G1 X157.167 Y43.031 E.01286
G1 X157.387 Y43.411 E.01375
G1 X157.451 Y43.698 E.00923
G1 X157.45 Y95.3 E1.61794
G1 X157.395 Y95.626 E.01035
G1 X157.275 Y95.882 E.00889
G1 X157.11 Y96.091 E.00833
G1 X156.882 Y96.264 E.00898
G1 X156.358 Y96.413 E.01709
G1 X114.429 Y96.413 E1.31466
G1 X114.174 Y96.313 E.00856
G1 X113.821 Y95.96 E.01566
G1 X113.721 Y95.705 E.00856
G1 X113.721 Y43.394 E1.64019
G1 X114.099 Y43.394 F9000
G1 F1200
G1 X114.127 Y43.321 E.00247
G1 X114.401 Y43.047 E.01215
G1 X114.47 Y43.018 E.00235
G1 X156.41 Y43.021 E1.31498
G1 X156.674 Y43.11 E.00874
G1 X156.896 Y43.295 E.00906
G1 X157.041 Y43.564 E.00958
G1 X157.074 Y43.717 E.00493
G1 X157.073 Y95.287 E1.61692
G1 X157.04 Y95.497 E.00668
G1 X156.964 Y95.668 E.00586
G1 X156.831 Y95.835 E.00668
G1 X156.69 Y95.938 E.00549
G1 X156.333 Y96.036 E.01159
G1 X114.47 Y96.036 E1.31258
G1 X114.401 Y96.007 E.00235
G1 X114.127 Y95.733 E.01215
G1 X114.099 Y95.664 E.00235
G1 X114.099 Y43.454 E1.63699
G1 X114.476 Y43.506 F9000
G1 F1200
G1 X114.586 Y43.395 E.0049
G1 X156.356 Y43.394 E1.30967
G1 X156.497 Y43.445 E.00469
G1 X156.614 Y43.549 E.00492
G1 X156.697 Y43.735 E.00639
G1 X156.696 Y95.271 E1.61586
G1 X156.654 Y95.452 E.00582
G1 X156.556 Y95.575 E.00494
G1 X156.51 Y95.606 E.00174
G1 X156.31 Y95.658 E.00648
G1 X114.586 Y95.658 E1.30823
G1 X114.476 Y95.548 E.0049
G1 X114.476 Y43.566 E1.62987
G1 E-3.5 F3600
;WIPE_START
G1 F7200
G1 X114.586 Y43.395 E-.09647
G1 X117.383 Y43.395 E-1.32853
;WIPE_END
G1 E-.075 F3600
G1 X94.87 Y43.605 F9000
G1 E5 F2400
G1 F1200
G1 X94.87 Y95.442 E1.62533
G1 X94.342 Y97.354 E.0622
G1 X93.599 Y98.422 E.04078
G1 X92.635 Y99.243 E.03972
G1 X91.467 Y99.787 E.04038
G1 X90.225 Y100.016 E.03961
G1 X63.966 Y100.016 E.82334
G1 X62.103 Y99.509 E.06052
G1 X61.006 Y98.76 E.04165
G1 X60.186 Y97.806 E.03945
G1 X59.637 Y96.65 E.04011
G1 X59.396 Y95.368 E.0409
G1 X59.396 Y43.616 E1.62266
G1 X59.924 Y41.704 E.0622
G1 X60.667 Y40.636 E.04078
G1 X61.632 Y39.815 E.03972
G1 X62.799 Y39.271 E.04039
G1 X64.042 Y39.042 E.03963
G1 X90.317 Y39.048 E.82384
G1 X91.98 Y39.473 E.05379
G1 X93.422 Y40.427 E.05422
G1 X93.903 Y40.989 E.02322
G1 X94.31 Y41.618 E.02345
G1 X94.854 Y43.547 E.06286
G1 X94.493 Y43.631 F9000
G1 F1200
G1 X94.493 Y95.417 E1.62373
G1 X94.013 Y97.167 E.05689
G1 X93.334 Y98.152 E.03753
G1 X92.45 Y98.913 E.03657
G1 X91.374 Y99.421 E.03731
G1 X90.207 Y99.639 E.03721
G1 X63.991 Y99.639 E.82198
G1 X62.235 Y99.155 E.05712
G1 X61.242 Y98.465 E.03791
G1 X60.49 Y97.581 E.03639
G1 X59.989 Y96.513 E.03701
G1 X59.773 Y95.351 E.03704
G1 X59.773 Y43.641 E1.62134
G1 X60.253 Y41.891 E.0569
G1 X60.932 Y40.905 E.03753
G1 X61.817 Y40.144 E.03657
G1 X62.893 Y39.637 E.03732
G1 X64.06 Y39.419 E.03722
G1 X90.293 Y39.425 E.82252
G1 X91.854 Y39.83 E.05056
G1 X93.152 Y40.692 E.04886
G1 X93.609 Y41.225 E.022
G1 X93.977 Y41.798 E.02136
G1 X94.477 Y43.573 E.05782
G1 X94.116 Y43.656 F9000
G1 F1200
G1 X94.116 Y95.391 E1.62211
G1 X93.659 Y97.034 E.05346
G1 X93.04 Y97.915 E.03378
G1 X92.225 Y98.61 E.03358
G1 X91.28 Y99.055 E.03276
G1 X90.189 Y99.262 E.0348
G1 X64.016 Y99.262 E.82063
G1 X62.422 Y98.826 E.05183
G1 X61.511 Y98.2 E.03465
G1 X60.819 Y97.396 E.03326
G1 X60.354 Y96.418 E.03394
G1 X60.15 Y95.333 E.03461
G1 X60.15 Y43.667 E1.61996
G1 X60.607 Y42.024 E.05346
G1 X61.226 Y41.143 E.03378
G1 X62.042 Y40.448 E.03358
G1 X62.987 Y40.003 E.03276
G1 X64.078 Y39.796 E.03482
G1 X90.27 Y39.802 E.82123
G1 X91.674 Y40.162 E.04545
G1 X92.884 Y40.958 E.04542
G1 X93.299 Y41.44 E.01993
G1 X93.645 Y41.978 E.02006
G1 X94.1 Y43.599 E.05278
G1 X93.739 Y43.682 F9000
G1 F1200
G1 X93.739 Y95.366 E1.62051
G1 X93.331 Y96.846 E.04813
G1 X92.776 Y97.645 E.03049
G1 X92 Y98.306 E.03197
G1 X91.143 Y98.703 E.02962
G1 X90.172 Y98.885 E.03098
G1 X64.042 Y98.885 E.81928
G1 X62.555 Y98.471 E.0484
G1 X61.748 Y97.906 E.0309
G1 X61.123 Y97.172 E.03024
G1 X60.706 Y96.281 E.03083
G1 X60.527 Y95.316 E.03076
G1 X60.527 Y43.692 E1.61864
G1 X60.936 Y42.212 E.04814
G1 X61.49 Y41.413 E.03049
G1 X62.266 Y40.752 E.03197
G1 X63.123 Y40.355 E.02962
G1 X64.095 Y40.173 E.031
G1 X90.245 Y40.18 E.81992
G1 X91.548 Y40.519 E.04222
G1 X92.615 Y41.224 E.04009
G1 X93.004 Y41.676 E.01869
G1 X93.312 Y42.157 E.01793
G1 X93.723 Y43.624 E.04777
G1 X93.362 Y43.708 F9000
G1 F1200
G1 X93.362 Y95.34 E1.61888
G1 X92.977 Y96.711 E.04466
G1 X92.484 Y97.406 E.02671
G1 X91.778 Y98 E.02894
G1 X91.009 Y98.35 E.02649
G1 X90.155 Y98.508 E.02723
G1 X64.067 Y98.508 E.81796
G1 X62.743 Y98.143 E.04308
G1 X62.019 Y97.642 E.0276
G1 X61.427 Y96.947 E.02865
G1 X61.072 Y96.187 E.02627
G1 X60.904 Y95.298 E.02837
G1 X60.904 Y43.718 E1.61725
G1 X61.289 Y42.347 E.04467
G1 X61.782 Y41.652 E.02671
G1 X62.488 Y41.058 E.02894
G1 X63.258 Y40.708 E.0265
G1 X64.112 Y40.55 E.02724
G1 X90.221 Y40.557 E.81865
G1 X91.369 Y40.852 E.03714
G1 X92.348 Y41.491 E.03666
G1 X92.694 Y41.89 E.01657
G1 X92.979 Y42.337 E.01662
G1 X93.346 Y43.65 E.04275
G1 X92.985 Y43.733 F9000
G1 F1200
G1 X92.985 Y95.314 E1.61728
G1 X92.649 Y96.522 E.0393
G1 X92.22 Y97.136 E.02349
G1 X91.595 Y97.67 E.02577
G1 X90.915 Y97.984 E.02349
G1 X90.137 Y98.131 E.02483
G1 X64.094 Y98.131 E.81657
G1 X62.877 Y97.789 E.03961
G1 X62.258 Y97.35 E.02381
G1 X61.732 Y96.725 E.02561
G1 X61.425 Y96.052 E.02317
G1 X61.281 Y95.281 E.0246
G1 X61.281 Y43.744 E1.61591
G1 X61.617 Y42.536 E.03931
G1 X62.047 Y41.922 E.02349
G1 X62.671 Y41.388 E.02577
G1 X63.351 Y41.074 E.02349
G1 X64.13 Y40.927 E.02484
G1 X90.198 Y40.934 E.81736
G1 X91.191 Y41.186 E.03212
G1 X92.081 Y41.759 E.03318
G1 X92.399 Y42.126 E.01525
G1 X92.646 Y42.515 E.01443
G1 X92.969 Y43.675 E.03777
G1 X92.608 Y43.759 F9000
G1 F1200
G1 X92.608 Y95.288 E1.61565
G1 X92.296 Y96.385 E.03579
G1 X91.929 Y96.895 E.01969
G1 X91.373 Y97.364 E.0228
G1 X90.782 Y97.631 E.02035
G1 X90.12 Y97.754 E.0211
G1 X64.119 Y97.754 E.81524
G1 X63.066 Y97.461 E.03426
G1 X62.528 Y97.086 E.02058
G1 X62.063 Y96.541 E.02247
G1 X61.791 Y95.958 E.02017
G1 X61.658 Y95.263 E.02218
G1 X61.658 Y43.771 E1.61451
G1 X61.97 Y42.673 E.03579
G1 X62.337 Y42.163 E.01969
G1 X62.893 Y41.694 E.0228
G1 X63.485 Y41.427 E.02035
G1 X64.147 Y41.304 E.02111
G1 X90.174 Y41.311 E.81606
G1 X91.066 Y41.543 E.02892
G1 X91.814 Y42.026 E.02793
G1 X92.089 Y42.341 E.01308
G1 X92.312 Y42.693 E.01309
G1 X92.592 Y43.701 E.03278
G1 X92.231 Y43.784 F9000
G1 F1200
G1 X92.231 Y95.262 E1.61406
G1 X91.969 Y96.195 E.03038
G1 X91.664 Y96.625 E.01653
G1 X91.19 Y97.033 E.01963
G1 X90.687 Y97.265 E.01735
G1 X90.102 Y97.377 E.01869
G1 X64.146 Y97.377 E.81383
G1 X63.203 Y97.109 E.03073
G1 X62.769 Y96.795 E.01678
G1 X62.369 Y96.319 E.01951
G1 X62.144 Y95.824 E.01706
G1 X62.035 Y95.246 E.01844
G1 X62.035 Y43.796 E1.61317
G1 X62.297 Y42.863 E.03038
G1 X62.602 Y42.433 E.01654
G1 X63.077 Y42.025 E.01963
G1 X63.579 Y41.793 E.01735
G1 X64.165 Y41.681 E.0187
G1 X90.15 Y41.688 E.81475
G1 X90.89 Y41.878 E.02396
G1 X91.549 Y42.295 E.02445
G1 X91.795 Y42.577 E.01173
G1 X91.978 Y42.87 E.01084
G1 X92.215 Y43.726 E.02785
G1 X91.854 Y43.809 F9000
G1 F1200
