; generated by PrusaSlicer 2.5.0+win64 on 2023-11-29 at 14:01:40 UTC

; 

; external perimeters extrusion width = 0.42mm
; perimeters extrusion width = 0.44mm
; infill extrusion width = 0.44mm
; solid infill extrusion width = 0.44mm
; top infill extrusion width = 0.40mm
; support material extrusion width = 0.36mm
; first layer extrusion width = 0.42mm

M107
;TYPE:Custom
G90 ; use absolute coordinates
M83 ; extruder relative mode
M140 S60 ; set final bed temp
M104 S150 ; set temporary nozzle temp to prevent oozing during homing
G4 S10 ; allow partial nozzle warmup
G28 ; home all axis
G1 Z50 F240
G1 X2 Y10 F3000
M104 S215 ; set final nozzle temp
M190 S60 ; wait for bed temp to stabilize
M109 S215 ; wait for nozzle temp to stabilize
G1 Z0.28 F240
G92 E0
G1 Y140 E10 F1500 ; prime the nozzle
G1 X2.3 F5000
G92 E0
G1 Y10 E10 F1200 ; prime the nozzle
G92 E0
G21 ; set units to millimeters
G90 ; use absolute coordinates
M83 ; use relative distances for extrusion
; Filament gcode
M107
;LAYER_CHANGE
;Z:0.2
;HEIGHT:0.2
;BEFORE_LAYER_CHANGE
G92 E0
;0.2


G1 E-5 F3600
G1 Z.2 F9000
;AFTER_LAYER_CHANGE
;0.2
G1 X83.07 Y82.166
G1 E5 F2400
M204 S500
;TYPE:Skirt/Brim
;WIDTH:0.42
G1 F1200
G1 X84.963 Y81.586 E.06207
G1 X146.037 Y81.586 E1.91495
G1 X147.62 Y81.98 E.05115
G1 X148.834 Y83.07 E.05115
G1 X149.414 Y84.963 E.06207
G1 X149.412 Y103.879 E.59309
G1 X148.16 Y136.972 E1.03837
G1 X147.508 Y138.842 E.06208
G1 X143.985 Y143.579 E.18511
G1 X143.038 Y144.291 E.03713
G1 X142.195 Y144.619 E.02837
G1 X122.937 Y149.318 E.62154
G1 X122.136 Y149.414 E.02528
G1 X108.864 Y149.414 E.41615
G1 X108.063 Y149.318 E.02528
G1 X88.831 Y144.626 E.62072
G1 X88.109 Y144.363 E.02408
G1 X87.363 Y143.899 E.02755
G1 X87.002 Y143.561 E.0155
G1 X83.493 Y138.844 E.18433
G1 X82.84 Y136.972 E.06216
G1 X81.588 Y103.879 E1.03837
G1 X81.586 Y84.963 E.59309
G1 X81.98 Y83.38 E.05115
G1 X83.03 Y82.211 E.04927
G1 E-3.5 F3600
;WIPE_START
G1 F7200
G1 X84.963 Y81.586 E-.96489
G1 X85.931 Y81.586 E-.46011
;WIPE_END
G1 E-.075 F3600
G1 X87.874 Y106.307 F9000
G1 E5 F2400
;TYPE:Support material interface
;WIDTH:0.36
G1 F1200
G1 X87.404 Y106.307 E.01237
G1 X87.404 Y133.885 E.72711
G1 X86.766 Y133.885 E.01684
G1 X86.766 Y106.307 E.72711
G1 X86.127 Y106.307 E.01684
G1 X86.127 Y133.885 E.72711
G1 E-3.5 F3600
;WIPE_START
G1 F7200
G1 X86.127 Y130.885 E-1.425
;WIPE_END
G1 E-.075 F3600
G1 X88.681 Y132.047 F9000
G1 E5 F2400
G1 F1200
G1 X88.681 Y133.885 E.04847
G1 X88.043 Y133.885 E.01684
G1 X88.043 Y132.047 E.04847
G1 X87.922 Y132.047 E.00319
G1 X87.922 Y108.146 E.63016
G1 X88.043 Y108.146 E.00319
G1 X88.043 Y106.307 E.04847
G1 X88.681 Y106.307 E.01684
G1 X88.681 Y108.146 E.04847
G1 X88.212 Y108.146 E.01237
G1 E-3.5 F3600
;WIPE_START
G1 F7200
G1 X88.681 Y108.146 E-.2229
G1 X88.681 Y106.307 E-.87332
G1 X88.043 Y106.307 E-.30331
G1 X88.043 Y106.361 E-.02547
;WIPE_END
G1 E-.075 F3600
G1 X88.995 Y111.105 F9000
G1 E5 F2400
;TYPE:Support material
;WIDTH:0.42
G1 F1200
G1 X88.301 Y111.105 E.02175
G1 X88.301 Y108.525 E.08089
G1 X88.995 Y108.525 E.02175
G1 X88.995 Y111.048 E.07911
G1 E-3.5 F3600
;WIPE_START
G1 F7200
G1 X88.995 Y108.525 E-1.19854
G1 X88.518 Y108.525 E-.22646
;WIPE_END
G1 E-.075 F3600
G1 X88.995 Y131.667 F9000
G1 E5 F2400
G1 F1200
G1 X88.301 Y131.667 E.02175
G1 X88.301 Y129.088 E.08089
G1 X88.995 Y129.088 E.02175
G1 X88.995 Y131.611 E.07911
G1 E-3.5 F3600
;WIPE_START
G1 F7200
G1 X88.995 Y129.088 E-1.19854
G1 X88.518 Y129.088 E-.22646
;WIPE_END
G1 E-.075 F3600
G1 X88.995 Y136.845 F9000
G1 E5 F2400
G1 F1200
G1 X86.215 Y136.845 E.08717
G1 X86.215 Y134.265 E.08089
G1 X88.995 Y134.265 E.08717
G1 X88.995 Y136.788 E.07911
G1 X88.266 Y136.675 F9000
G1 F1200
G1 X88.266 Y134.604 E.06493
G1 X87.848 Y134.604 E.01314
G1 X87.848 Y136.505 E.05961
G1 X87.429 Y136.505 E.01314
G1 X87.429 Y134.604 E.05961
G1 X87.01 Y134.604 E.01314
G1 X87.01 Y136.505 E.05961
G1 X86.591 Y136.505 E.01314
G1 X86.591 Y134.434 E.06493
G1 E-3.5 F3600
;WIPE_START
G1 F7200
G1 X86.591 Y136.505 E-.98361
G1 X87.01 Y136.505 E-.19901
G1 X87.01 Y135.995 E-.24238
;WIPE_END
G1 E-.075 F3600
G1 X122.136 Y146.037 F9000
G1 E5 F2400
G1 F1200
G1 X108.864 Y146.037 E.41615
G1 X108.864 Y141.688 E.13637
G1 X122.136 Y141.688 E.41615
G1 X122.136 Y145.981 E.13459
G1 X121.785 Y145.868 F9000
G1 F1200
G1 X121.785 Y142.027 E.12041
G1 X121.366 Y142.027 E.01314
G1 X121.366 Y145.698 E.11509
G1 X120.947 Y145.698 E.01314
G1 X120.947 Y142.027 E.11509
G1 X120.528 Y142.027 E.01314
G1 X120.528 Y145.698 E.11509
G1 X120.109 Y145.698 E.01314
G1 X120.109 Y142.027 E.11509
G1 X119.69 Y142.027 E.01314
G1 X119.69 Y145.698 E.11509
G1 X119.271 Y145.698 E.01314
G1 X119.271 Y142.027 E.11509
G1 X118.852 Y142.027 E.01314
G1 X118.852 Y145.698 E.11509
G1 X118.433 Y145.698 E.01314
G1 X118.433 Y142.027 E.11509
G1 X118.014 Y142.027 E.01314
G1 X118.014 Y145.698 E.11509
G1 X117.595 Y145.698 E.01314
G1 X117.595 Y142.027 E.11509
G1 X117.176 Y142.027 E.01314
G1 X117.176 Y145.698 E.11509
G1 X116.757 Y145.698 E.01314
G1 X116.757 Y142.027 E.11509
G1 X116.338 Y142.027 E.01314
G1 X116.338 Y145.698 E.11509
G1 X115.919 Y145.698 E.01314
G1 X115.919 Y142.027 E.11509
G1 X115.5 Y142.027 E.01314
G1 X115.5 Y145.698 E.11509
G1 X115.081 Y145.698 E.01314
G1 X115.081 Y142.027 E.11509
G1 X114.662 Y142.027 E.01314
G1 X114.662 Y145.698 E.11509
G1 X114.243 Y145.698 E.01314
G1 X114.243 Y142.027 E.11509
G1 X113.824 Y142.027 E.01314
G1 X113.824 Y145.698 E.11509
G1 X113.405 Y145.698 E.01314
G1 X113.405 Y142.027 E.11509
G1 X112.986 Y142.027 E.01314
G1 X112.986 Y145.698 E.11509
G1 X112.567 Y145.698 E.01314
G1 X112.567 Y142.027 E.11509
G1 X112.148 Y142.027 E.01314
G1 X112.148 Y145.698 E.11509
G1 X111.729 Y145.698 E.01314
G1 X111.729 Y142.027 E.11509
G1 X111.31 Y142.027 E.01314
G1 X111.31 Y145.698 E.11509
G1 X110.891 Y145.698 E.01314
G1 X110.891 Y142.027 E.11509
G1 X110.472 Y142.027 E.01314
G1 X110.472 Y145.698 E.11509
G1 X110.053 Y145.698 E.01314
G1 X110.053 Y142.027 E.11509
G1 X109.634 Y142.027 E.01314
G1 X109.634 Y145.698 E.11509
G1 X109.215 Y145.698 E.01314
G1 X109.215 Y141.858 E.12041
G1 E-3.5 F3600
;WIPE_START
G1 F7200
G1 X109.215 Y144.858 E-1.425
;WIPE_END
G1 E-.075 F3600
G1 X142.788 Y133.885 F9000
G1 E5 F2400
;TYPE:Support material interface
;WIDTH:0.36
G1 F1200
G1 X142.319 Y133.885 E.01237
G1 X142.319 Y132.047 E.04847
G1 X142.788 Y132.047 E.01237
G1 X142.699 Y131.667 F9000
;TYPE:Support material
;WIDTH:0.42
G1 F1200
G1 X142.005 Y131.667 E.02175
G1 X142.005 Y129.088 E.08089
G1 X142.699 Y129.088 E.02175
G1 X142.699 Y131.611 E.07911
G1 E-3.5 F3600
;WIPE_START
G1 F7200
G1 X142.699 Y129.088 E-1.19854
G1 X142.222 Y129.088 E-.22646
;WIPE_END
G1 E-.075 F3600
G1 X144.785 Y134.265 F9000
G1 E5 F2400
G1 F1200
G1 X144.785 Y136.845 E.08089
G1 X142.005 Y136.845 E.08717
G1 X142.005 Y134.265 E.08089
G1 X144.729 Y134.265 E.0854
G1 X144.409 Y136.675 F9000
G1 F1200
G1 X144.409 Y134.604 E.06493
G1 X143.99 Y134.604 E.01314
G1 X143.99 Y136.505 E.05961
G1 X143.571 Y136.505 E.01314
G1 X143.571 Y134.604 E.05961
G1 X143.152 Y134.604 E.01314
G1 X143.152 Y136.505 E.05961
G1 X142.734 Y136.505 E.01314
G1 X142.734 Y134.434 E.06493
G1 E-3.5 F3600
;WIPE_START
G1 F7200
G1 X142.734 Y136.505 E-.98361
G1 X143.152 Y136.505 E-.19901
G1 X143.152 Y135.995 E-.24238
;WIPE_END
G1 E-.075 F3600
G1 X142.699 Y108.525 F9000
G1 E5 F2400
G1 F1200
G1 X142.699 Y111.105 E.08089
G1 X142.005 Y111.105 E.02175
G1 X142.005 Y108.525 E.08089
G1 X142.642 Y108.525 E.01998
G1 X142.319 Y108.146 F9000
;TYPE:Support material interface
;WIDTH:0.36
G1 F1200
G1 X142.319 Y106.307 E.04847
G1 X142.957 Y106.307 E.01684
G1 X142.957 Y108.146 E.04847
G1 X143.078 Y108.146 E.00319
G1 X143.078 Y132.047 E.63016
G1 X142.957 Y132.047 E.00319
G1 X142.957 Y133.885 E.04847
G1 X143.596 Y133.885 E.01684
G1 X143.596 Y106.307 E.72711
G1 X144.234 Y106.307 E.01684
G1 X144.234 Y133.885 E.72711
G1 X144.873 Y133.885 E.01684
G1 X144.873 Y106.307 E.72711
G1 E-3.5 F3600
;WIPE_START
G1 F7200
G1 X144.873 Y109.307 E-1.425
;WIPE_END
G1 E-.075 F3600
G1 X146.037 Y103.751 F9000
G1 E5 F2400
;TYPE:Support material
;WIDTH:0.42
G1 F1200
G1 X144.785 Y103.751 E.03925
G1 X144.785 Y105.928 E.06826
G1 X142.005 Y105.928 E.08717
G1 X142.005 Y98.992 E.21748
G1 X141.734 Y98.721 E.012
G1 X89.266 Y98.721 E1.64512
G1 X88.995 Y98.992 E.012
G1 X88.995 Y105.928 E.21748
G1 X86.215 Y105.928 E.08717
G1 X86.215 Y103.751 E.06826
G1 X84.963 Y103.751 E.03925
G1 X84.963 Y84.963 E.58909
G1 X146.037 Y84.963 E1.91495
G1 X146.037 Y103.694 E.58732
G1 E-3.5 F3600
;WIPE_START
G1 F7200
G1 X146.037 Y100.694 E-1.425
;WIPE_END
G1 E-.075 F3600
G1 X131.329 Y94.558 F9000
G1 E5 F2400
G1 F1200
G1 X131.329 Y95.994 E.04502
G1 X138.28 Y95.994 E.21796
G1 X138.28 Y94.558 E.04502
G1 X131.386 Y94.558 E.21618
G1 X109.266 Y94.558 F9000
G1 F1200
G1 X109.266 Y95.994 E.04502
G1 X121.734 Y95.994 E.3909
G1 X121.734 Y94.558 E.04502
G1 X109.323 Y94.558 E.38912
G1 X92.72 Y94.558 F9000
G1 F1200
G1 X92.72 Y95.994 E.04502
G1 X99.671 Y95.994 E.21796
G1 X99.671 Y94.558 E.04502
G1 X92.776 Y94.558 E.21618
G1 E-3.5 F3600
;WIPE_START
G1 F7200
G1 X95.776 Y94.558 E-1.425
;WIPE_END
G1 E-.075 F3600
G1 X145.666 Y103.581 F9000
G1 E5 F2400
G1 F1200
G1 X145.666 Y85.302 E.57313
G1 X145.247 Y85.302 E.01314
G1 X145.247 Y103.411 E.56781
G1 X144.828 Y103.411 E.01314
G1 X144.828 Y85.302 E.56781
G1 X144.409 Y85.302 E.01314
G1 X144.409 Y105.589 E.63607
G1 X143.99 Y105.589 E.01314
G1 X143.99 Y85.302 E.63607
G1 X143.571 Y85.302 E.01314
G1 X143.571 Y105.589 E.63607
G1 X143.152 Y105.589 E.01314
G1 X143.152 Y85.302 E.63607
G1 X142.734 Y85.302 E.01314
G1 X142.734 Y105.589 E.63607
G1 X142.344 Y105.589 E.0122
G1 X142.344 Y98.851 E.21125
G1 X142.315 Y98.821 E.00132
G1 X142.315 Y85.302 E.42388
G1 X141.896 Y85.302 E.01314
G1 X141.896 Y98.402 E.41075
G1 X141.875 Y98.382 E.00091
G1 X141.477 Y98.382 E.01249
G1 X141.477 Y85.302 E.4101
G1 X141.058 Y85.302 E.01314
G1 X141.058 Y98.382 E.4101
G1 X140.639 Y98.382 E.01314
G1 X140.639 Y85.302 E.4101
G1 X140.22 Y85.302 E.01314
G1 X140.22 Y98.382 E.4101
G1 X139.801 Y98.382 E.01314
G1 X139.801 Y85.302 E.4101
G1 X139.382 Y85.302 E.01314
G1 X139.382 Y98.382 E.4101
G1 X138.963 Y98.382 E.01314
G1 X138.963 Y85.302 E.4101
G1 X138.544 Y85.302 E.01314
G1 X138.544 Y98.382 E.4101
G1 X138.125 Y98.382 E.01314
G1 X138.125 Y96.333 E.06422
G1 X137.706 Y96.333 E.01314
G1 X137.706 Y98.382 E.06422
G1 X137.287 Y98.382 E.01314
G1 X137.287 Y96.333 E.06422
G1 X136.868 Y96.333 E.01314
G1 X136.868 Y98.382 E.06422
G1 X136.449 Y98.382 E.01314
G1 X136.449 Y96.333 E.06422
G1 X136.03 Y96.333 E.01314
G1 X136.03 Y98.382 E.06422
G1 X135.611 Y98.382 E.01314
G1 X135.611 Y96.333 E.06422
G1 X135.192 Y96.333 E.01314
G1 X135.192 Y98.382 E.06422
G1 X134.773 Y98.382 E.01314
G1 X134.773 Y96.333 E.06422
G1 X134.354 Y96.333 E.01314
G1 X134.354 Y98.382 E.06422
G1 X133.935 Y98.382 E.01314
G1 X133.935 Y96.333 E.06422
G1 X133.516 Y96.333 E.01314
G1 X133.516 Y98.382 E.06422
G1 X133.097 Y98.382 E.01314
G1 X133.097 Y96.333 E.06422
G1 X132.678 Y96.333 E.01314
G1 X132.678 Y98.382 E.06422
G1 X132.259 Y98.382 E.01314
G1 X132.259 Y96.333 E.06422
G1 X131.84 Y96.333 E.01314
G1 X131.84 Y98.382 E.06422
G1 X131.421 Y98.382 E.01314
G1 X131.421 Y96.164 E.06954
G1 E-3.5 F3600
;WIPE_START
G1 F7200
G1 X131.421 Y98.382 E-1.05354
G1 X131.84 Y98.382 E-.19901
G1 X131.84 Y98.019 E-.17244
;WIPE_END
G1 E-.075 F3600
G1 X138.125 Y94.388 F9000
G1 E5 F2400
G1 F1200
G1 X138.125 Y85.302 E.2849
G1 X137.706 Y85.302 E.01314
G1 X137.706 Y94.219 E.27958
G1 X137.287 Y94.219 E.01314
G1 X137.287 Y85.302 E.27958
G1 X136.868 Y85.302 E.01314
G1 X136.868 Y94.219 E.27958
G1 X136.449 Y94.219 E.01314
G1 X136.449 Y85.302 E.27958
G1 X136.03 Y85.302 E.01314
G1 X136.03 Y94.219 E.27958
G1 X135.611 Y94.219 E.01314
G1 X135.611 Y85.302 E.27958
G1 X135.192 Y85.302 E.01314
G1 X135.192 Y94.219 E.27958
G1 X134.773 Y94.219 E.01314
G1 X134.773 Y85.302 E.27958
G1 X134.354 Y85.302 E.01314
G1 X134.354 Y94.219 E.27958
G1 X133.935 Y94.219 E.01314
G1 X133.935 Y85.302 E.27958
G1 X133.516 Y85.302 E.01314
G1 X133.516 Y94.219 E.27958
G1 X133.097 Y94.219 E.01314
G1 X133.097 Y85.302 E.27958
G1 X132.678 Y85.302 E.01314
G1 X132.678 Y94.219 E.27958
G1 X132.259 Y94.219 E.01314
G1 X132.259 Y85.302 E.27958
G1 X131.84 Y85.302 E.01314
G1 X131.84 Y94.219 E.27958
G1 X131.421 Y94.219 E.01314
G1 X131.421 Y85.302 E.27958
G1 X131.002 Y85.302 E.01314
G1 X131.002 Y98.382 E.4101
G1 X130.583 Y98.382 E.01314
G1 X130.583 Y85.302 E.4101
G1 X130.164 Y85.302 E.01314
G1 X130.164 Y98.382 E.4101
G1 X129.745 Y98.382 E.01314
G1 X129.745 Y85.302 E.4101
G1 X129.326 Y85.302 E.01314
G1 X129.326 Y98.382 E.4101
G1 X128.907 Y98.382 E.01314
G1 X128.907 Y85.302 E.4101
G1 X128.488 Y85.302 E.01314
G1 X128.488 Y98.382 E.4101
G1 X128.069 Y98.382 E.01314
G1 X128.069 Y85.302 E.4101
G1 X127.65 Y85.302 E.01314
G1 X127.65 Y98.382 E.4101
G1 X127.231 Y98.382 E.01314
G1 X127.231 Y85.302 E.4101
G1 X126.812 Y85.302 E.01314
G1 X126.812 Y98.382 E.4101
G1 X126.393 Y98.382 E.01314
G1 X126.393 Y85.302 E.4101
G1 X125.974 Y85.302 E.01314
G1 X125.974 Y98.382 E.4101
G1 X125.555 Y98.382 E.01314
G1 X125.555 Y85.302 E.4101
G1 X125.136 Y85.302 E.01314
G1 X125.136 Y98.382 E.4101
G1 X124.717 Y98.382 E.01314
G1 X124.717 Y85.302 E.4101
G1 X124.299 Y85.302 E.01314
G1 X124.299 Y98.382 E.4101
G1 X123.88 Y98.382 E.01314
G1 X123.88 Y85.302 E.4101
G1 X123.461 Y85.302 E.01314
G1 X123.461 Y98.382 E.4101
G1 X123.042 Y98.382 E.01314
G1 X123.042 Y85.302 E.4101
G1 X122.623 Y85.302 E.01314
G1 X122.623 Y98.382 E.4101
G1 X122.204 Y98.382 E.01314
G1 X122.204 Y85.302 E.4101
G1 X121.785 Y85.302 E.01314
G1 X121.785 Y94.219 E.27958
G1 X121.366 Y94.219 E.01314
G1 X121.366 Y85.302 E.27958
G1 X120.947 Y85.302 E.01314
G1 X120.947 Y94.219 E.27958
G1 X120.528 Y94.219 E.01314
G1 X120.528 Y85.302 E.27958
G1 X120.109 Y85.302 E.01314
G1 X120.109 Y94.219 E.27958
G1 X119.69 Y94.219 E.01314
G1 X119.69 Y85.302 E.27958
G1 X119.271 Y85.302 E.01314
G1 X119.271 Y94.219 E.27958
G1 X118.852 Y94.219 E.01314
G1 X118.852 Y85.302 E.27958
G1 X118.433 Y85.302 E.01314
G1 X118.433 Y94.219 E.27958
G1 X118.014 Y94.219 E.01314
G1 X118.014 Y85.302 E.27958
G1 X117.595 Y85.302 E.01314
G1 X117.595 Y94.219 E.27958
G1 X117.176 Y94.219 E.01314
G1 X117.176 Y85.302 E.27958
G1 X116.757 Y85.302 E.01314
G1 X116.757 Y94.219 E.27958
G1 X116.338 Y94.219 E.01314
G1 X116.338 Y85.302 E.27958
G1 X115.919 Y85.302 E.01314
G1 X115.919 Y94.219 E.27958
G1 X115.5 Y94.219 E.01314
G1 X115.5 Y85.302 E.27958
G1 X115.081 Y85.302 E.01314
G1 X115.081 Y94.219 E.27958
G1 X114.662 Y94.219 E.01314
G1 X114.662 Y85.302 E.27958
G1 X114.243 Y85.302 E.01314
G1 X114.243 Y94.219 E.27958
G1 X113.824 Y94.219 E.01314
G1 X113.824 Y85.302 E.27958
G1 X113.405 Y85.302 E.01314
G1 X113.405 Y94.219 E.27958
G1 X112.986 Y94.219 E.01314
G1 X112.986 Y85.302 E.27958
G1 X112.567 Y85.302 E.01314
G1 X112.567 Y94.219 E.27958
G1 X112.148 Y94.219 E.01314
G1 X112.148 Y85.302 E.27958
G1 X111.729 Y85.302 E.01314
G1 X111.729 Y94.219 E.27958
G1 X111.31 Y94.219 E.01314
G1 X111.31 Y85.302 E.27958
G1 X110.891 Y85.302 E.01314
G1 X110.891 Y94.219 E.27958
G1 X110.472 Y94.219 E.01314
G1 X110.472 Y85.302 E.27958
G1 X110.053 Y85.302 E.01314
G1 X110.053 Y94.219 E.27958
G1 X109.634 Y94.219 E.01314
G1 X109.634 Y85.302 E.27958
G1 X109.215 Y85.302 E.01314
G1 X109.215 Y94.219 E.27958
G1 X108.927 Y94.219 E.00904
G1 X108.927 Y96.333 E.0663
G1 X109.215 Y96.333 E.00904
G1 X109.215 Y98.382 E.06422
G1 X109.634 Y98.382 E.01314
G1 X109.634 Y96.333 E.06422
G1 X110.053 Y96.333 E.01314
G1 X110.053 Y98.382 E.06422
G1 X110.472 Y98.382 E.01314
G1 X110.472 Y96.333 E.06422
G1 X110.891 Y96.333 E.01314
G1 X110.891 Y98.382 E.06422
G1 X111.31 Y98.382 E.01314
G1 X111.31 Y96.333 E.06422
G1 X111.729 Y96.333 E.01314
G1 X111.729 Y98.382 E.06422
G1 X112.148 Y98.382 E.01314
G1 X112.148 Y96.333 E.06422
G1 X112.567 Y96.333 E.01314
G1 X112.567 Y98.382 E.06422
G1 X112.986 Y98.382 E.01314
G1 X112.986 Y96.333 E.06422
G1 X113.405 Y96.333 E.01314
G1 X113.405 Y98.382 E.06422
G1 X113.824 Y98.382 E.01314
G1 X113.824 Y96.333 E.06422
G1 X114.243 Y96.333 E.01314
G1 X114.243 Y98.382 E.06422
G1 X114.662 Y98.382 E.01314
G1 X114.662 Y96.333 E.06422
G1 X115.081 Y96.333 E.01314
