; generated by PrusaSlicer 2.5.0+win64 on 2023-11-21 at 03:09:33 UTC

; 

; external perimeters extrusion width = 0.42mm
; perimeters extrusion width = 0.44mm
; infill extrusion width = 0.44mm
; solid infill extrusion width = 0.44mm
; top infill extrusion width = 0.40mm
; support material extrusion width = 0.36mm
; first layer extrusion width = 0.42mm

M107
;TYPE:Custom
G90 ; use absolute coordinates
M83 ; extruder relative mode
M140 S60 ; set final bed temp
M104 S150 ; set temporary nozzle temp to prevent oozing during homing
G4 S10 ; allow partial nozzle warmup
G28 ; home all axis
G1 Z50 F240
G1 X2 Y10 F3000
M104 S215 ; set final nozzle temp
M190 S60 ; wait for bed temp to stabilize
M109 S215 ; wait for nozzle temp to stabilize
G1 Z0.28 F240
G92 E0
G1 Y140 E10 F1500 ; prime the nozzle
G1 X2.3 F5000
G92 E0
G1 Y10 E10 F1200 ; prime the nozzle
G92 E0
G21 ; set units to millimeters
G90 ; use absolute coordinates
M83 ; use relative distances for extrusion
; Filament gcode
M107
;LAYER_CHANGE
;Z:0.2
;HEIGHT:0.2
;BEFORE_LAYER_CHANGE
G92 E0
;0.2


G1 E-5 F3600
G1 Z.2 F9000
;AFTER_LAYER_CHANGE
;0.2
G1 X87.2 Y99.876
G1 E5 F2400
M204 S500
;TYPE:Skirt/Brim
;WIDTH:0.42
G1 F1200
G1 X88.193 Y99.182 E.03799
G1 X89.112 Y98.883 E.03029
G1 X89.78 Y98.817 E.02106
G1 X141.22 Y98.817 E1.61285
G1 X141.807 Y98.869 E.01848
G1 X142.741 Y99.151 E.0306
G1 X143.316 Y99.478 E.02073
G1 X143.792 Y99.868 E.0193
G1 X148.46 Y104.673 E.21006
G1 X149.28 Y106.083 E.05115
G1 X149.414 Y107.025 E.02983
G1 X149.414 Y118.459 E.3585
G1 X149.123 Y119.833 E.04402
G1 X144.54 Y130.116 E.35301
G1 X144.24 Y130.613 E.01819
G1 X143.8 Y131.124 E.02114
G1 X142.807 Y131.818 E.03798
G1 X141.888 Y132.117 E.03029
G1 X141.22 Y132.183 E.02106
G1 X89.78 Y132.183 E1.61285
G1 X88.57 Y131.974 E.0385
G1 X87.741 Y131.561 E.02904
G1 X87.158 Y131.083 E.02364
G1 X86.49 Y130.172 E.03543
G1 X81.878 Y119.833 E.35499
G1 X81.586 Y118.459 E.04402
G1 X81.586 Y107.025 E.3585
G1 X81.98 Y105.442 E.05115
G1 X82.54 Y104.673 E.02983
G1 X87.158 Y99.919 E.20782
G1 E-3.5 F3600
;WIPE_START
G1 F7200
G1 X88.193 Y99.182 E-.60346
G1 X89.112 Y98.883 E-.4589
G1 X89.78 Y98.817 E-.31909
G1 X89.872 Y98.817 E-.04354
;WIPE_END
G1 E-.075 F3600
G1 X89.164 Y118.459 F9000
G1 E5 F2400
;TYPE:Support material
G1 F1200
G1 X84.963 Y118.459 E.13173
G1 X84.963 Y107.025 E.3585
G1 X89.164 Y107.025 E.13173
G1 X89.164 Y118.403 E.35673
G1 X88.685 Y118.289 F9000
G1 F1200
G1 X88.685 Y107.365 E.34254
G1 X88.266 Y107.365 E.01314
G1 X88.266 Y118.12 E.33722
G1 X87.848 Y118.12 E.01314
G1 X87.848 Y107.365 E.33722
G1 X87.429 Y107.365 E.01314
G1 X87.429 Y118.12 E.33722
G1 X87.01 Y118.12 E.01314
G1 X87.01 Y107.365 E.33722
G1 X86.591 Y107.365 E.01314
G1 X86.591 Y118.12 E.33722
G1 X86.172 Y118.12 E.01314
G1 X86.172 Y107.365 E.33722
G1 X85.753 Y107.365 E.01314
G1 X85.753 Y118.12 E.33722
G1 X85.334 Y118.12 E.01314
G1 X85.334 Y107.195 E.34254
G1 E-3.5 F3600
;WIPE_START
G1 F7200
G1 X85.334 Y110.195 E-1.425
;WIPE_END
G1 E-.075 F3600
G1 X146.037 Y118.459 F9000
G1 E5 F2400
G1 F1200
G1 X141.836 Y118.459 E.13173
G1 X141.836 Y107.025 E.3585
G1 X146.037 Y107.025 E.13173
G1 X146.037 Y118.403 E.35673
G1 X145.666 Y118.289 F9000
G1 F1200
G1 X145.666 Y107.365 E.34254
G1 X145.247 Y107.365 E.01314
G1 X145.247 Y118.12 E.33722
G1 X144.828 Y118.12 E.01314
G1 X144.828 Y107.365 E.33722
G1 X144.409 Y107.365 E.01314
G1 X144.409 Y118.12 E.33722
G1 X143.99 Y118.12 E.01314
G1 X143.99 Y107.365 E.33722
G1 X143.571 Y107.365 E.01314
G1 X143.571 Y118.12 E.33722
G1 X143.152 Y118.12 E.01314
G1 X143.152 Y107.365 E.33722
G1 X142.734 Y107.365 E.01314
G1 X142.734 Y118.12 E.33722
G1 X142.315 Y118.12 E.01314
G1 X142.315 Y107.195 E.34254
G1 E-3.5 F3600
;WIPE_START
G1 F7200
G1 X142.315 Y110.195 E-1.425
;WIPE_END
G1 E-.075 F3600
G1 X140.31 Y103.44 F9000
G1 E5 F2400
;TYPE:Perimeter
;WIDTH:0.419999
G1 F1200
G1 X140.31 Y127.56 E.75624
G1 X90.69 Y127.56 E1.55578
G1 X90.69 Y103.44 E.75624
G1 X109.594 Y103.44 E.59271
G1 X109.436 Y103.629 E.00771
G1 X109.436 Y116.871 E.41522
G1 X109.528 Y117.278 E.01307
G1 X109.742 Y117.567 E.01126
G1 X110.028 Y117.747 E.0106
G1 X110.379 Y117.814 E.01119
G1 X116.224 Y117.814 E.18327
;WIDTH:0.445358
G1 X116.863 Y117.827 E.02141
;WIDTH:0.495213
G1 X116.99 Y117.852 E.00484
;WIDTH:0.545068
G1 X117.116 Y117.877 E.00537
;WIDTH:0.594923
G1 X117.242 Y117.902 E.00591
G1 X117.65 Y117.889 E.01872
;WIDTH:0.56889
G1 X118.058 Y117.876 E.01784
;WIDTH:0.542857
G1 X123.707 Y117.876 E.23482
;WIDTH:0.555756
G1 X124.112 Y117.882 E.01731
G1 X124.249 Y117.859 E.00591
;WIDTH:0.509163
G1 X124.386 Y117.835 E.00538
;WIDTH:0.462569
G1 X125.026 Y117.814 E.02234
;WIDTH:0.419999
G1 X130.065 Y117.814 E.158
G1 X130.815 Y117.794 E.02353
G1 X131.126 Y117.668 E.01052
G1 X131.39 Y117.418 E.01139
G1 X131.517 Y117.165 E.00888
G1 X131.564 Y116.871 E.00933
G1 X131.564 Y103.629 E.41522
G1 X131.376 Y103.44 E.00835
G1 X140.25 Y103.44 E.27823
G1 X140.687 Y103.063 F9000
G1 F1200
G1 X140.687 Y127.937 E.77989
G1 X90.313 Y127.937 E1.57942
G1 X90.313 Y103.063 E.77989
G1 X109.248 Y103.063 E.59367
;WIDTH:0.42825
G1 X110.28 Y103.067 E.03308
G1 X109.813 Y103.629 E.0234
;WIDTH:0.419999
G1 X109.813 Y116.871 E.41522
G1 X109.893 Y117.162 E.00944
G1 X110.094 Y117.36 E.00885
G1 X110.379 Y117.437 E.00925
G1 X130.738 Y117.425 E.63834
G1 X130.976 Y117.312 E.00826
G1 X131.126 Y117.128 E.00745
G1 X131.187 Y116.871 E.00827
G1 X131.187 Y103.629 E.41522
G1 X130.621 Y103.063 E.02508
G1 X140.627 Y103.063 E.31371
G1 X141.064 Y102.686 F9000
;TYPE:External perimeter
G1 F1200
G1 X141.061 Y128.314 E.80354
G1 X89.936 Y128.31 E1.60297
G1 X89.939 Y102.686 E.80342
G1 X141.004 Y102.686 E1.60109
G1 X140.92 Y103.059 F9000
G1 E-3.5 F3600
;WIPE_START
G1 F7200
G1 X141.01 Y105.686 E-1.425
;WIPE_END
G1 E-.075 F3600
G1 X130.621 Y103.44 F9000
G1 E5 F2400
G1 F1200
G1 X130.81 Y103.629 E.00836
G1 X130.81 Y116.871 E.41522
G1 X130.74 Y117.018 E.00511
G1 X130.621 Y117.06 E.00393
G1 X110.379 Y117.06 E.6347
G1 X110.233 Y116.991 E.00505
G1 X110.19 Y116.871 E.00399
G1 X110.19 Y103.629 E.41522
G1 X110.379 Y103.44 E.00836
G1 X130.561 Y103.44 E.63282
G1 X130.852 Y103.306 F9000
G1 E-3.5 F3600
;WIPE_START
G1 F7200
G1 X130.81 Y103.629 E-.14818
G1 X130.81 Y106.317 E-1.27682
;WIPE_END
G1 E-.075 F3600
G1 X114.501 Y123.409 F9000
G1 E5 F2400
;TYPE:Perimeter
;WIDTH:0.427704
G1 F1200
G1 X114.535 Y123.574 E.00537
;WIDTH:0.428448
G1 X114.531 Y124.904 E.04266
;WIDTH:0.419999
G1 X114.531 Y125.816 E.0286
G1 X114.476 Y126.136 E.01016
G1 X114.178 Y126.552 E.01604
G1 X113.752 Y126.745 E.01469
G1 X113.589 Y126.759 E.00513
G1 X111.416 Y126.759 E.06813
G1 X110.85 Y126.571 E.01869
G1 X110.546 Y126.179 E.01555
G1 X110.473 Y125.816 E.01159
G1 X110.473 Y123.574 E.07033
G1 X110.565 Y123.168 E.01304
G1 X110.717 Y122.941 E.00858
G1 X110.955 Y122.751 E.00953
G1 X111.253 Y122.645 E.00992
G1 X111.416 Y122.631 E.00513
G1 X113.589 Y122.631 E.06813
G1 X113.712 Y122.639 E.00389
G1 X114.109 Y122.787 E.01327
;WIDTH:0.422944
G1 X114.461 Y123.213 E.01746
;WIDTH:0.427704
G1 X114.489 Y123.35 E.00449
G1 X114.14 Y123.525 F9000
;WIDTH:0.419999
G1 F1200
G1 X114.154 Y125.816 E.07184
G1 X114.121 Y126.008 E.00609
G1 X113.943 Y126.258 E.00962
G1 X113.589 Y126.382 E.01176
G1 X111.416 Y126.382 E.06813
G1 X111.076 Y126.269 E.01122
G1 X110.894 Y126.034 E.00933
G1 X110.85 Y125.816 E.00696
G1 X110.85 Y123.574 E.07033
G1 X110.905 Y123.33 E.00782
G1 X111.056 Y123.137 E.0077
G1 X111.318 Y123.016 E.00902
G1 X111.416 Y123.008 E.00308
G1 X113.589 Y123.008 E.06813
G1 X113.901 Y123.102 E.01022
G1 X114.137 Y123.434 E.01279
G1 X114.138 Y123.465 E.00097
G1 X113.777 Y123.574 F9000
;TYPE:External perimeter
G1 F1200
G1 X113.777 Y125.816 E.07033
G1 X113.707 Y125.964 E.00511
G1 X113.589 Y126.005 E.00392
G1 X111.416 Y126.005 E.06813
G1 X111.303 Y125.967 E.00374
G1 X111.227 Y125.816 E.00529
G1 X111.227 Y123.574 E.07033
G1 X111.246 Y123.492 E.00261
G1 X111.359 Y123.394 E.00471
G1 X111.416 Y123.385 E.00181
G1 X113.589 Y123.385 E.06813
G1 X113.693 Y123.416 E.00341
G1 X113.749 Y123.521 E.00372
G1 X114.164 Y123.677 F9000
G1 X115.018 Y124.079
;TYPE:Perimeter
;WIDTH:0.453062
G1 F1200
G1 X114.956 Y123.898 E.00655
G1 X114.898 Y123.385 E.0176
;WIDTH:0.421867
G1 X114.872 Y122.377 E.03175
;WIDTH:0.419999
G1 X114.872 Y121.623 E.02365
G1 X114.933 Y121.042 E.01832
G1 X115.113 Y120.428 E.02006
G1 X115.224 Y120.184 E.00841
G1 X115.57 Y119.646 E.02006
G1 X115.746 Y119.443 E.00841
G1 X116.23 Y119.024 E.02006
;WIDTH:0.445358
G1 X117.032 Y118.601 E.03035
;WIDTH:0.495213
G1 X117.115 Y118.551 E.00366
;WIDTH:0.545068
G1 X117.198 Y118.501 E.00406
;WIDTH:0.594923
G1 X117.282 Y118.451 E.00446
G1 X117.914 Y118.383 E.02919
;WIDTH:0.549315
G1 X118.058 Y118.376 E.00606
;WIDTH:0.542857
G1 X123.707 Y118.376 E.23482
;WIDTH:0.555756
G1 X124.094 Y118.394 E.01655
G1 X124.363 Y118.489 E.01216
;WIDTH:0.510504
G1 X124.632 Y118.583 E.01109
;WIDTH:0.465252
G1 X124.902 Y118.678 E.01002
;WIDTH:0.419999
G1 X125.146 Y118.789 E.00841
G1 X125.684 Y119.135 E.02006
G1 X125.887 Y119.311 E.00841
G1 X126.306 Y119.795 E.02006
G1 X126.451 Y120.02 E.00841
G1 X126.717 Y120.602 E.02006
G1 X126.792 Y120.859 E.0084
G1 X126.892 Y121.623 E.02415
G1 X126.892 Y123.132 E.0473
G1 X126.832 Y123.713 E.01832
G1 X126.651 Y124.327 E.02006
G1 X126.54 Y124.571 E.00841
G1 X126.194 Y125.109 E.02006
G1 X126.018 Y125.312 E.00841
G1 X125.535 Y125.731 E.02006
G1 X125.309 Y125.876 E.00841
G1 X124.727 Y126.142 E.02006
G1 X124.47 Y126.217 E.0084
G1 X123.841 Y126.308 E.01992
G1 X118.058 Y126.318 E.18133
G1 X117.477 Y126.257 E.01832
G1 X116.863 Y126.077 E.02006
G1 X116.619 Y125.965 E.00841
G1 X116.08 Y125.619 E.02006
G1 X115.793 Y125.346 E.01243
G1 X115.459 Y124.96 E.01601
G1 X115.314 Y124.734 E.00841
;WIDTH:0.428448
G1 X115.044 Y124.154 E.02051
;WIDTH:0.453062
G1 X115.038 Y124.136 E.00064
G1 X115.376 Y123.915 F9000
;WIDTH:0.419999
G1 F1200
G1 X115.249 Y123.132 E.02489
G1 X115.249 Y121.623 E.0473
G1 X115.294 Y121.148 E.01496
G1 X115.475 Y120.534 E.02006
G1 X115.887 Y119.849 E.02507
G1 X116.476 Y119.309 E.02507
G1 X117.194 Y118.956 E.02507
G1 X118.058 Y118.814 E.02745
G1 X123.707 Y118.814 E.17711
G1 X124.181 Y118.86 E.01496
G1 X124.795 Y119.04 E.02006
G1 X125.48 Y119.453 E.02507
G1 X126.021 Y120.042 E.02507
G1 X126.374 Y120.759 E.02507
G1 X126.515 Y121.623 E.02745
G1 X126.515 Y123.132 E.0473
G1 X126.47 Y123.607 E.01496
G1 X126.29 Y124.22 E.02006
G1 X125.877 Y124.905 E.02507
G1 X125.288 Y125.446 E.02507
G1 X124.57 Y125.799 E.02507
G1 X123.707 Y125.941 E.02745
G1 X118.058 Y125.941 E.17711
G1 X117.583 Y125.895 E.01496
G1 X116.969 Y125.715 E.02006
G1 X116.284 Y125.302 E.02507
G1 X115.744 Y124.713 E.02507
G1 X115.387 Y123.974 E.02573
G1 X115.734 Y123.839 F9000
;TYPE:External perimeter
G1 F1200
G1 X115.645 Y123.277 E.01784
G1 X115.626 Y121.623 E.05186
G1 X115.698 Y121.113 E.01613
G1 X115.859 Y120.592 E.01713
G1 X116.205 Y120.053 E.02006
G1 X116.723 Y119.594 E.02173
G1 X117.351 Y119.299 E.02173
G1 X118.058 Y119.191 E.02243
G1 X123.707 Y119.191 E.17711
G1 X124.075 Y119.221 E.0116
G1 X124.689 Y119.402 E.02006
G1 X125.276 Y119.77 E.02173
G1 X125.736 Y120.288 E.02173
G1 X126.031 Y120.916 E.02173
G1 X126.138 Y121.623 E.02243
G1 X126.138 Y123.132 E.0473
G1 X126.108 Y123.5 E.0116
G1 X125.928 Y124.114 E.02006
G1 X125.56 Y124.701 E.02173
G1 X125.041 Y125.161 E.02173
G1 X124.414 Y125.456 E.02173
G1 X123.707 Y125.563 E.02243
G1 X118.058 Y125.563 E.17711
G1 X117.689 Y125.533 E.0116
G1 X117.075 Y125.353 E.02006
G1 X116.488 Y124.985 E.02173
G1 X116.029 Y124.466 E.02173
G1 X115.759 Y123.893 E.01985
G1 X115.344 Y123.75 F9000
G1 E-3.5 F3600
;WIPE_START
G1 F7200
G1 X115.645 Y123.277 E-.29777
G1 X115.626 Y121.623 E-.78566
G1 X115.698 Y121.113 E-.24437
G1 X115.758 Y120.918 E-.0972
;WIPE_END
G1 E-.075 F3600
G1 X110.28 Y103.067 F9000
G1 E5 F2400
;TYPE:Perimeter
;WIDTH:0.42825
G1 F1200
G1 X110.379 Y103.063 E.00316
;WIDTH:0.419682
G1 X130.621 Y103.063 E.63417
G1 E-3.5 F3600
;WIPE_START
G1 F7200
G1 X127.621 Y103.063 E-1.425
;WIPE_END
G1 E-.075 F3600
G1 X140.189 Y104.326 F9000
G1 E5 F2400
;TYPE:Solid infill
;WIDTH:0.42141
G1 F1200
G1 X139.593 Y103.731 E.02651
G1 X139.058 Y103.731 E.01685
G1 X140.019 Y104.692 E.04278
G1 X140.019 Y105.227 E.01685
G1 X138.523 Y103.731 E.0666
G1 X137.988 Y103.731 E.01685
G1 X140.019 Y105.762 E.09043
G1 X140.019 Y106.298 E.01685
G1 X137.452 Y103.731 E.11425
G1 X136.917 Y103.731 E.01685
G1 X140.019 Y106.833 E.13807
G1 X140.019 Y107.368 E.01685
G1 X136.382 Y103.731 E.1619
G1 X135.847 Y103.731 E.01685
G1 X140.019 Y107.903 E.18572
G1 X140.019 Y108.439 E.01685
G1 X135.311 Y103.731 E.20954
G1 X134.776 Y103.731 E.01685
G1 X140.019 Y108.974 E.23337
G1 X140.019 Y109.509 E.01685
G1 X134.241 Y103.731 E.25719
G1 X133.706 Y103.731 E.01685
G1 X140.019 Y110.044 E.28101
G1 X140.019 Y110.58 E.01685
G1 X133.17 Y103.731 E.30484
G1 X132.635 Y103.731 E.01685
G1 X140.019 Y111.115 E.32866
G1 X140.019 Y111.65 E.01685
G1 X132.1 Y103.731 E.35248
G1 X131.855 Y103.731 E.00772
G1 X131.855 Y104.021 E.00913
G1 X140.019 Y112.186 E.3634
G1 X140.019 Y112.721 E.01685
G1 X131.855 Y104.556 E.3634
G1 X131.855 Y105.091 E.01685
G1 X140.019 Y113.256 E.3634
G1 X140.019 Y113.791 E.01685
G1 X131.855 Y105.626 E.3634
G1 X131.855 Y106.162 E.01685
G1 X140.019 Y114.327 E.3634
G1 X140.019 Y114.862 E.01685
G1 X131.855 Y106.697 E.3634
G1 X131.855 Y107.232 E.01685
G1 X140.019 Y115.397 E.3634
G1 X140.019 Y115.932 E.01685
G1 X131.855 Y107.768 E.3634
G1 X131.855 Y108.303 E.01685
G1 X140.019 Y116.468 E.3634
G1 X140.019 Y117.003 E.01685
G1 X131.855 Y108.838 E.3634
G1 X131.855 Y109.373 E.01685
G1 X140.019 Y117.538 E.3634
G1 X140.019 Y118.073 E.01685
G1 X131.855 Y109.909 E.3634
G1 X131.855 Y110.444 E.01685
G1 X140.019 Y118.609 E.3634
G1 X140.019 Y119.144 E.01685
G1 X131.855 Y110.979 E.3634
G1 X131.855 Y111.514 E.01685
G1 X140.019 Y119.679 E.3634
G1 X140.019 Y120.215 E.01685
G1 X131.855 Y112.05 E.3634
G1 X131.855 Y112.585 E.01685
G1 X140.019 Y120.75 E.3634
G1 X140.019 Y121.285 E.01685
G1 X131.855 Y113.12 E.3634
G1 X131.855 Y113.655 E.01685
G1 X140.019 Y121.82 E.3634
G1 X140.019 Y122.356 E.01685
G1 X131.855 Y114.191 E.3634
G1 X131.855 Y114.726 E.01685
G1 X140.019 Y122.891 E.3634
G1 X140.019 Y123.426 E.01685
G1 X131.855 Y115.261 E.3634
G1 X131.855 Y115.797 E.01685
G1 X140.019 Y123.961 E.3634
G1 X140.019 Y124.497 E.01685
G1 X131.855 Y116.332 E.3634
G1 X131.855 Y116.867 E.01685
G1 X140.019 Y125.032 E.3634
G1 X140.019 Y125.567 E.01685
G1 X131.768 Y117.316 E.36723
G1 X131.721 Y117.43 E.00389
G1 X131.567 Y117.65 E.00845
G1 X140.019 Y126.102 E.37619
G1 X140.019 Y126.638 E.01685
G1 X131.284 Y117.903 E.38878
G1 X131.156 Y117.984 E.00478
G1 X130.913 Y118.066 E.00808
G1 X140.019 Y127.173 E.40532
G1 X140.019 Y127.269 E.00303
G1 X139.58 Y127.269 E.01381
G1 X130.416 Y118.104 E.4079
G1 X129.88 Y118.104 E.01685
G1 X139.045 Y127.269 E.4079
G1 X138.51 Y127.269 E.01685
G1 X129.345 Y118.104 E.4079
G1 X128.81 Y118.104 E.01685
G1 X137.975 Y127.269 E.4079
G1 X137.439 Y127.269 E.01685
G1 X128.275 Y118.104 E.4079
G1 X127.739 Y118.104 E.01685
G1 X136.904 Y127.269 E.4079
G1 X136.369 Y127.269 E.01685
G1 X127.204 Y118.104 E.4079
G1 X126.669 Y118.104 E.01685
G1 X135.834 Y127.269 E.4079
G1 X135.298 Y127.269 E.01685
G1 X126.133 Y118.104 E.4079
G1 X125.598 Y118.104 E.01685
G1 X134.763 Y127.269 E.4079
G1 X134.228 Y127.269 E.01685
G1 X125.063 Y118.104 E.4079
G1 X124.559 Y118.136 E.01589
G1 X125.029 Y118.605 E.0209
G1 E-3.5 F3600
;WIPE_START
G1 F7200
G1 X124.559 Y118.136 E-.31551
G1 X125.063 Y118.104 E-.23985
G1 X126.358 Y119.399 E-.86964
;WIPE_END
G1 E-.075 F3600
G1 X126.701 Y120.278 F9000
G1 E5 F2400
G1 F1200
G1 X133.693 Y127.269 E.31118
G1 X133.157 Y127.269 E.01685
G1 X127.142 Y121.255 E.2677
G1 X127.171 Y121.454 E.00633
G1 X127.174 Y121.821 E.01156
G1 X132.622 Y127.269 E.24249
G1 X132.087 Y127.269 E.01685
G1 X127.177 Y122.36 E.2185
G1 X127.181 Y122.899 E.01696
G1 X131.551 Y127.269 E.19451
G1 X131.016 Y127.269 E.01685
G1 X127.165 Y123.418 E.17142
G1 X127.157 Y123.54 E.00386
G1 X127.087 Y123.875 E.01077
G1 X130.481 Y127.269 E.15107
G1 X129.946 Y127.269 E.01685
G1 X126.965 Y124.289 E.13265
G1 X126.928 Y124.415 E.00415
G1 X126.812 Y124.67 E.00882
G1 X129.41 Y127.269 E.11567
